!!!!SEGMENT: pl-kk--kk-i-514--003-ac1_hofmann-leopold--motetto-veni-o-jesu-chare-ac1.krn
!!!cenid: 17xx:1863b
!!!COM: Hofmann, Leopold
!!!COM-rismID:
!!!CDT: 1738/08/14-1793/03/17
!!!CNT: Austrian
!!!OPR: Motetto
!!!OTL: Veni o Jesu chare [cadentia 2]
!!!OMV: 003
!!!PDT:
!!!AGN: Sacred; Motet
!!!SMS-siglum: PL-Kk
!!!SMS-shelfmark: Kk.I.514
!!!SMS-shelfwork: 001-003 M
!!!SMS-variant: Violino Primo.:PL-KK-KK-I-514:14 Violino 2do.:PL-KK-KK-I-514:24
!!!SMS-altvar: Violino Primo:PL-KK-KK-I-514:19 Violino Secondo:PL-KK-KK-I-514:29
!!!NIFC-rismSourceID: 1001140197
!!!NIFC-islandoraID: pl-kk:14870
!!!URL-pdf-islandora: https://repozytorium.nifc.pl/islandora/object/pl-kk%3A14870/datastream/PDF/view
!!!URL-scan: https://polish.musicsources.pl/pl/lokalizacje/galeria/rekopisy/6124 @EN{Scan on Polish Music Herritage in Open Access Website} @PL{Skany w portalu Dziedzictwo Muzyki Polskiej w otwartym dostępie}
!!!ONB-nifc: UWAGA: części Motetu: 1. Ad sponsum animae veloces, 2. Recitativo, 3. Veni o Jesu chare, 4. Alleluja
!!!AIN: 1 alto 1 cello 3 empty 1 organ 2 soprn 1 tenor 1 timpa 1 viola 2 violn
!!!key:
**kern	**fba	**dynam	**kern	**dynam	**kern	**dynam	**kern	**dynam	**kern	**dynam	**kern	**kern	**kern	**kern	**kern	**text	**kern	**kern	**kern
*part13	*	*part13	*part12	*part12	*part11	*part11	*part10	*part10	*part9	*part9	*part8	*part7	*part6	*part5	*part4	*part4	*part3	*part2	*part1
*	*	*	*group3	*	*group3	*	*group3	*	*group3	*	*group2	*group2	*group2	*group2	*group2	*	*	*group1	*group1
*staff13	*	*	*staff12	*	*staff11	*	*staff10	*	*staff9	*	*staff8	*staff7	*staff6	*staff5	*staff4	*staff4	*staff3	*staff2	*staff1
*Iorgan	*	*	*Icello	*	*Iviola	*	*Ivioln	*	*Ivioln	*	*Iempty	*Itenor	*Ialto	*Isoprn	*Isoprn	*	*Itimpa	*Iempty	*Iempty
*I"Organo.	*	*	*I"Violone	*	*I"Viola.	*	*I"Violino 2do.	*	*I"Violino Primo.	*	*I"Baſso Rip:no	*I"Tenore Rip:no	*I"Alto Rip:no	*I"Soprano Rip:no	*I"Soprano Con:cto	*	*I"Tympano in D.	*I"Clarino Secondo. in D.	*I"Clarino Primo. in D.
*I'org	*	*	*I'vlne	*	*I'vla	*	*I'vl 2	*	*I'vl 1	*	*I'Coro B	*I'Coro T	*I'Coro A	*I'Coro S	*I'S	*	*I'timp	*I'clar 2	*I'clar 1
*clefF4	*	*	*clefF4	*	*clefC3	*	*clefG2	*	*clefG2	*	*clefF4	*clefC4	*clefC3	*clefG2	*clefC1	*	*clefF4	*clefG2	*clefG2
*	*	*	*ITrd0c0	*	*	*	*	*	*	*	*	*	*	*	*	*	*	*ITrd-1c-2	*ITrd-1c-2
*k[f#c#g#]	*	*	*k[f#c#g#]	*	*k[f#c#g#]	*	*k[f#c#g#]	*	*k[f#c#g#]	*	*k[f#c#g#]	*k[f#c#g#]	*k[f#c#g#]	*k[f#c#g#]	*k[f#c#g#]	*	*k[]	*k[f#c#]	*k[f#c#]
*A:	*	*	*A:	*	*A:	*	*A:	*	*A:	*	*A:	*A:	*A:	*A:	*A:	*	*	*	*
*M2/4	*	*	*M2/4	*	*M2/4	*	*M2/4	*	*M2/4	*	*M2/4	*M2/4	*M2/4	*M2/4	*M2/4	*	*M2/4	*M2/4	*M2/4
=1	=1	=1	=1	=1	=1	=1	=1	=1	=1	=1	=1	=1	=1	=1	=1	=1	=1	=1	=1
!	!	!	!	!	!	!	!LO:TUP:b:problem=klamra łukowa	!	!	!	!	!	!	!	!LO:TX:a:t=P:problem=krzyżyki f# cc# g#	!	!	!	!
!LO:TX:a:t=Adagio.	!	!	!LO:TX:a:i:t=Adagio	!	!LO:TX:a:i:t=Adagio	!	!LO:TX:a:i:t=Adagio	!	!LO:TX:a:i:t=Adagio	!	!	!	!	!	!LO:TX:a:i:t=Adagio	!	!	!	!
!LO:TX:a:t=Aria	!	!	!LO:TX:a:i:t=Aria	!	!LO:TX:a:i:t=Aria	!	!LO:TX:a:i:t=Aria	!	!LO:TX:a:i:t=Aria	!	!LO:TX:a:i:t=Aria, Recit&colon;vo et Aria Tacet.	!LO:TX:a:i:t=Aria, Recit&colon; et Aria Tacet.	!LO:TX:a:i:t=Aria, Recitvo et Aria Tacet.	!LO:TX:a:i:t=Aria, Recit&colon;vo et Aria Tacet .	!LO:TX:a:i:t=Aria	!	!LO:TX:a:t=Recit. et Aria Tacent.	!LO:TX:a:t=Recit. et Aria Tacet.	!LO:TX:a:t=Recit&colon; et Aria Tacent.
!	!	!	!	!	!	!	!	!	!	!	!	!	!	!	!LO:N:vis=00	!	!	!	!
8A\L	.	.	8A\L	.	8A/L	.	24A/LL	.	[4ee\	.	2ryy	2ryy	2ryy	2ryy	0r	.	2ryy	2ryy	2ryy
.	.	.	.	.	.	.	24e/	.	.	.	.	.	.	.	.	.	.	.	.
.	.	.	.	.	.	.	24c#/	.	.	.	.	.	.	.	.	.	.	.	.
8A\	.	.	8A\	.	8A/	.	24A/	.	.	.	.	.	.	.	.	.	.	.	.
.	.	.	.	.	.	.	24e/	.	.	.	.	.	.	.	.	.	.	.	.
.	.	.	.	.	.	.	24c#/JJ	.	.	.	.	.	.	.	.	.	.	.	.
!	!	!	!	!	!	!	!	!	!LO:TUP:a:problem=klamra łukowa	!	!	!	!	!	!	!	!	!	!
8A\J	.	.	8A\J	.	8A/J	.	8A/	.	24ee\LL]	.	.	.	.	.	.	.	.	.	.
.	.	.	.	.	.	.	.	.	24aa\	.	.	.	.	.	.	.	.	.	.
.	.	.	.	.	.	.	.	.	24ee\	.	.	.	.	.	.	.	.	.	.
.	.	.	.	.	.	.	.	.	16qqff#/	.	.	.	.	.	.	.	.	.	.
8r	.	.	8r	.	8r	.	8r	.	24ee\	.	.	.	.	.	.	.	.	.	.
.	.	.	.	.	.	.	.	.	24dd#X\	.	.	.	.	.	.	.	.	.	.
.	.	.	.	.	.	.	.	.	24ee\JJ	.	.	.	.	.	.	.	.	.	.
=2	=2	=2	=2	=2	=2	=2	=2	=2	=2	=2	=2	=2	=2	=2	=2	=2	=2	=2	=2
*	*	*	*	*	*	*	*Xtuplet	*	*	*	*	*	*	*	*	*	*	*	*
8G#\L	.	.	8G#\L	.	8G#/L	.	24B/LL	.	[<4ee\	.	2ryy	2ryy	2ryy	2ryy	.	.	2ryy	2ryy	2ryy
.	.	.	.	.	.	.	24e/	.	.	.	.	.	.	.	.	.	.	.	.
.	.	.	.	.	.	.	24d/	.	.	.	.	.	.	.	.	.	.	.	.
8G#\	.	.	8G#\	.	8G#/	.	24B/	.	.	.	.	.	.	.	.	.	.	.	.
.	.	.	.	.	.	.	24e/	.	.	.	.	.	.	.	.	.	.	.	.
.	.	.	.	.	.	.	24d/JJ	.	.	.	.	.	.	.	.	.	.	.	.
!	!	!	!	!	!	!	!	!	!LO:TUP:a:problem=klamra łukowa	!	!	!	!	!	!	!	!	!	!
8G#\J	.	.	8G#\J	.	8G#/J	.	8B/	.	24ee\LL]	.	.	.	.	.	.	.	.	.	.
.	.	.	.	.	.	.	.	.	24bb\	.	.	.	.	.	.	.	.	.	.
.	.	.	.	.	.	.	.	.	24ee\	.	.	.	.	.	.	.	.	.	.
.	.	.	.	.	.	.	.	.	16qqff#/	.	.	.	.	.	.	.	.	.	.
8r	.	.	8r	.	8r	.	8r	.	24ee\	.	.	.	.	.	.	.	.	.	.
.	.	.	.	.	.	.	.	.	24dd#X\	.	.	.	.	.	.	.	.	.	.
.	.	.	.	.	.	.	.	.	24ee\JJ	.	.	.	.	.	.	.	.	.	.
=3	=3	=3	=3	=3	=3	=3	=3	=3	=3	=3	=3	=3	=3	=3	=3	=3	=3	=3	=3
*	*	*	*	*	*	*	*tuplet	*	*	*	*	*	*	*	*	*	*	*	*
!	!	!	!	!	!LO:TX:t=P:problem=mixed beam	!	!LO:TUP:b:problem=klamra łukowa	!	!	!	!	!	!	!	!	!	!	!	!
8A\L	.	.	8A\L	.	8A/L	.	24A/LL	.	[4ee\	.	2ryy	2ryy	2ryy	2ryy	.	.	2ryy	2ryy	2ryy
.	.	.	.	.	.	.	24e/	.	.	.	.	.	.	.	.	.	.	.	.
.	.	.	.	.	.	.	24c#/	.	.	.	.	.	.	.	.	.	.	.	.
8A\	.	.	8A\	.	8A/	.	24A/	.	.	.	.	.	.	.	.	.	.	.	.
.	.	.	.	.	.	.	24e/	.	.	.	.	.	.	.	.	.	.	.	.
.	.	.	.	.	.	.	24c#/JJ	.	.	.	.	.	.	.	.	.	.	.	.
!	!	!	!	!	!	!	!	!	!LO:LB:g=original	!	!	!	!	!	!	!	!	!	!
*	*	*	*	*	*	*	*	*	*Xtuplet	*	*	*	*	*	*	*	*	*	*
!	!	!	!	!	!	!	!	!	!LO:TUP:a:problem=klamra łukowa	!	!	!	!	!	!	!	!	!	!
!	!	!	!	!	!	!	!	!	!LO:TX:t=P:problem=mixed beam	!	!	!	!	!	!	!	!	!	!
8A\	.	.	8A\	.	8A/	.	16A/LL	.	24ee\LL]	.	.	.	.	.	.	.	.	.	.
.	.	.	.	.	.	.	.	.	24aa\	.	.	.	.	.	.	.	.	.	.
.	.	.	.	.	.	.	(16a/	.	.	.	.	.	.	.	.	.	.	.	.
.	.	.	.	.	.	.	.	.	24a/JJ	.	.	.	.	.	.	.	.	.	.
.	.	.	.	.	.	.	.	.	16qqb/	.	.	.	.	.	.	.	.	.	.
!	!	!	!	!	!	!	!	!	!LO:TUP:b:problem=klamra łukowa	!	!	!	!	!	!	!	!	!	!
8c#\J	.	.	8c#\J	.	8e\J	.	16g#/	.	24a/LL	.	.	.	.	.	.	.	.	.	.
.	.	.	.	.	.	.	.	.	24g#/	.	.	.	.	.	.	.	.	.	.
.	.	.	.	.	.	.	16a/JJ)	.	.	.	.	.	.	.	.	.	.	.	.
.	.	.	.	.	.	.	.	.	24a/JJ	.	.	.	.	.	.	.	.	.	.
!LO:LB:g=original	!	!	!LO:LB:g=original	!	!	!	!LO:LB:g=original	!	!	!	!	!	!	!	!	!	!	!	!
=4	=4	=4	=4	=4	=4	=4	=4	=4	=4	=4	=4	=4	=4	=4	=4	=4	=4	=4	=4
!LO:TX:t=P:problem=mixed beam	!	!	!LO:TX:t=P:problem=mixed beam	!	!	!	!	!	!	!	!	!	!	!	!	!	!	!	!
8d\L	.	.	8d\L	.	4f#\	.	8a#X\L|	.	8a#X\L	.	2ryy	2ryy	2ryy	2ryy	.	.	2ryy	2ryy	2ryy
8D/J	.	.	8D/J	.	.	.	(16.b\L	.	(16.b\L	.	.	.	.	.	.	.	.	.	.
.	.	.	.	.	.	.	32dd\JJk)	.	32ff#\JJk)	.	.	.	.	.	.	.	.	.	.
!	!	!	!	!	!	!	!LO:TX:t=P:problem=mixed beam	!	!LO:TX:t=P:problem=mixed beam	!	!	!	!	!	!	!	!	!	!
8r	.	.	8r	.	8r	.	(8dd\L	.	(8ff#\L	.	.	.	.	.	.	.	.	.	.
8E\	.	.	8E\	.	8e\	.	16.cc#\L)	.	16.ee\L)	.	.	.	.	.	.	.	.	.	.
.	.	.	.	.	.	.	32d/JJk	.	32g#X/JJk	.	.	.	.	.	.	.	.	.	.
!	!	!	!	!	!LO:LB:g=original	!	!	!	!	!	!	!	!	!	!	!	!	!	!
=5	=5	=5	=5	=5	=5	=5	=5	=5	=5	=5	=5	=5	=5	=5	=5	=5	=5	=5	=5
!	!	!	!	!	!	!	!	!	!	!	!	!	!	!	!LO:N:vis=00	!	!	!	!
8A\L	.	.	8A\L	.	8e\L	.	8c#/L	.	8a/L	.	2ryy	2ryy	2ryy	2ryy	0r	.	2ryy	2ryy	2ryy
16.E\L	.	.	16.E\L	.	16.e\L	.	16.e/L	.	16.e/L	.	.	.	.	.	.	.	.	.	.
32A\JJk	.	.	32A\JJk	.	32a\JJk	.	32a/JJk	.	32a/JJk	.	.	.	.	.	.	.	.	.	.
16.C#/LL	.	.	16.C#/LL	.	16.c#\LL	.	16.c#/LL	.	16.c#/LL	.	.	.	.	.	.	.	.	.	.
32E/JJk	.	.	32E/JJk	.	32e\JJk	.	32e/JJk	.	32e/JJk	.	.	.	.	.	.	.	.	.	.
16qqE/	.	.	16qqE/	.	16qqe/	.	16qqe/	.	16qqe/	.	.	.	.	.	.	.	.	.	.
16D/LL	.	.	(16D/LL	.	(16d/LL	.	(16d/LL	.	(16d/LL	.	.	.	.	.	.	.	.	.	.
32C#/L	.	.	32C#/L)	.	32c#/L	.	32c#/L	.	32c#/L	.	.	.	.	.	.	.	.	.	.
32BB/JJJ	.	.	32BB/JJJ	.	32B/JJJ)	.	32B/JJJ)	.	32B/JJJ)	.	.	.	.	.	.	.	.	.	.
=6	=6	=6	=6	=6	=6	=6	=6	=6	=6	=6	=6	=6	=6	=6	=6	=6	=6	=6	=6
!	!	!	!	!	!	!	!LO:TX:t=P:problem=mixed beam	!	!LO:TX:t=P:problem=mixed beam	!	!	!	!	!	!	!	!	!	!
4AA/	.	.	4AA/	.	4A/	.	16c#/LL	.	(16A/LL	.	2ryy	2ryy	2ryy	2ryy	.	.	2ryy	2ryy	2ryy
.	.	.	.	.	.	.	(16cc#'\	.	16ee'\	.	.	.	.	.	.	.	.	.	.
.	.	.	.	.	.	.	16cc#'\	.	16ee'\	.	.	.	.	.	.	.	.	.	.
.	.	.	.	.	.	.	16cc#'\JJ)	.	16ee'\JJ)	.	.	.	.	.	.	.	.	.	.
!	!	!	!	!	!	!	!LO:N:vis=8.	!	!LO:N:vis=8.	!	!	!	!	!	!	!	!	!	!
16r	.	.	16r	.	16r	.	8cc#/L	.	8ee\L	.	.	.	.	.	.	.	.	.	.
(16A'\LL	.	.	(16A'\LL	.	16a\LL	.	.	.	.	.	.	.	.	.	.	.	.	.	.
16A'\	.	.	16A'\	.	16a\	.	(32b/LL	.	(32dd\LL	.	.	.	.	.	.	.	.	.	.
.	.	.	.	.	.	.	32a/	.	32cc#\	.	.	.	.	.	.	.	.	.	.
16A'\JJ)	.	.	16A'\JJ)	.	16a\JJ	.	32g#/	.	32b\	.	.	.	.	.	.	.	.	.	.
.	.	.	.	.	.	.	32a/JJJ)	.	32cc#\JJJ)	.	.	.	.	.	.	.	.	.	.
!	!	!	!	!	!	!	!	!	!LO:LB:g=original	!	!	!	!	!	!	!	!	!	!
=7	=7	=7	=7	=7	=7	=7	=7	=7	=7	=7	=7	=7	=7	=7	=7	=7	=7	=7	=7
8E\	.	.	8E\	.	8g#\	.	16dd\LL	.	16dd\LL	.	2ryy	2ryy	2ryy	2ryy	.	.	2ryy	2ryy	2ryy
!	!	!	!	!	!	!	!	!	!LO:N:vis=32	!	!	!	!	!	!	!	!	!	!
.	.	.	.	.	.	.	16bb\JJ	.	16bb\	.	.	.	.	.	.	.	.	.	.
8r	.	.	8r	.	8r	.	32aa\LLL	.	32aa\L	.	.	.	.	.	.	.	.	.	.
.	.	.	.	.	.	.	(32gg#\	.	(32gg#\	.	.	.	.	.	.	.	.	.	.
.	.	.	.	.	.	.	32ff#\	.	32ff#\	.	.	.	.	.	.	.	.	.	.
.	.	.	.	.	.	.	32ee\JJJ)	.	32ee\JJJ)	.	.	.	.	.	.	.	.	.	.
!	!	!	!	!	!	!	!LO:LB:g=original	!	!	!	!	!	!	!	!	!	!	!	!
.	.	.	.	.	.	.	8qqee/	.	8qqee/	.	.	.	.	.	.	.	.	.	.
16r	.	.	16r	.	16r	.	4ddT\	.	4ddT\	.	.	.	.	.	.	.	.	.	.
(16E\LL	.	.	(16E\LL	.	16g#\LL	.	.	.	.	.	.	.	.	.	.	.	.	.	.
16F#\	.	.	16F#\	.	16a\	.	.	.	.	.	.	.	.	.	.	.	.	.	.
16G#\JJ)	.	.	16G#\JJ)	.	16b\JJ	.	.	.	.	.	.	.	.	.	.	.	.	.	.
=8	=8	=8	=8	=8	=8	=8	=8	=8	=8	=8	=8	=8	=8	=8	=8	=8	=8	=8	=8
!LO:TX:t=P:problem=mixed beam	!	!	!LO:TX:t=P:problem=mixed beam	!	!LO:TX:t=P:problem=mixed beam	!	!LO:TX:t=P:problem=mixed beam	!	!LO:TX:t=P:problem=mixed beam	!	!	!	!	!	!	!	!	!	!
8A\L	.	.	8A\L	.	8a\L	.	16cc#\LL	.	16cc#\KL	.	2ryy	2ryy	2ryy	2ryy	.	.	2ryy	2ryy	2ryy
.	.	.	.	.	.	.	16c#/	.	8e/	.	.	.	.	.	.	.	.	.	.
8AA/	6 4	.	8AA/	.	8A/	.	16c#/	.	.	.	.	.	.	.	.	.	.	.	.
.	.	.	.	.	.	.	16c#/JJ	.	16a/Jk	.	.	.	.	.	.	.	.	.	.
.	.	.	.	.	.	.	8qqe/	.	16qqg#/	.	.	.	.	.	.	.	.	.	.
8AA/	.	.	8AA/	.	8A/	.	8d/L	.	8f#T/L	.	.	.	.	.	.	.	.	.	.
8AA/J	5	.	8AA/J	.	8A/J	.	8c#/J	.	16.e/L	.	.	.	.	.	.	.	.	.	.
.	.	.	.	.	.	.	.	.	32a/JJk	.	.	.	.	.	.	.	.	.	.
!	!	!	!LO:LB:g=original	!	!	!	!	!	!	!	!	!	!	!	!	!	!	!	!
=9	=9	=9	=9	=9	=9	=9	=9	=9	=9	=9	=9	=9	=9	=9	=9	=9	=9	=9	=9
*	*	*	*tremolo	*	*tremolo	*	*	*	*	*	*	*	*	*	*	*	*	*	*
.	.	.	.	.	.	.	8qqe/	.	8qqg#/	.	.	.	.	.	.	.	.	.	.
!	!	!	!	!	!	!	!	!	!	!	!	!	!	!	!LO:N:vis=00	!	!	!	!
8AA/L	.	.	8AA/L	.	8A/L	.	8dT/L	.	8f#/L	.	2ryy	2ryy	2ryy	2ryy	0r	.	2ryy	2ryy	2ryy
8AA/	6 4	.	8AA/	.	8A/	.	32c#/LL	.	32e/LL	.	.	.	.	.	.	.	.	.	.
.	.	.	.	.	.	.	(32e/	.	(32a/	.	.	.	.	.	.	.	.	.	.
.	.	.	.	.	.	.	32a/	.	32cc#/	.	.	.	.	.	.	.	.	.	.
.	.	.	.	.	.	.	32cc#/JJJ)	.	32ee/JJJ)	.	.	.	.	.	.	.	.	.	.
8AA/	x 5	.	8AA/	.	8A/	.	(8.cc#/L	.	8.ee\L	.	.	.	.	.	.	.	.	.	.
8AA/J	.	.	8AA/J	.	8A/J	.	.	.	.	.	.	.	.	.	.	.	.	.	.
.	.	.	.	.	.	.	32b/LL	.	(32dd\LL	.	.	.	.	.	.	.	.	.	.
!	!	!	!LO:TX:a:t=P:problem=po tym takcie 5 skreślonych	!	!	!	!	!	!	!	!	!	!	!	!	!	!	!	!
.	.	.	.	.	.	.	32a/JJJ)	.	32cc#\JJJ)	.	.	.	.	.	.	.	.	.	.
*	*	*	*	*	*Xtremolo	*	*	*	*	*	*	*	*	*	*	*	*	*	*
!LO:LB:g=original	!	!	!LO:LB:g=original	!	!LO:LB:g=original	!	!	!	!	!	!	!	!	!	!	!	!	!	!
=10	=10	=10	=10	=10	=10	=10	=10	=10	=10	=10	=10	=10	=10	=10	=10	=10	=10	=10	=10
!	!	!	!	!	!	!	!	!	!LO:TX:a:t=t	!	!	!	!	!	!	!	!	!	!
8.E\L	.	.	8.E\L	.	8.e\L	.	8aT/L	.	8cc#\L	.	2ryy	2ryy	2ryy	2ryy	.	.	2ryy	2ryy	2ryy
.	.	.	.	.	.	.	8g#/J	.	8b\J	.	.	.	.	.	.	.	.	.	.
16E\Jk	.	.	16E\Jk	.	16e\Jk	.	.	.	.	.	.	.	.	.	.	.	.	.	.
16G#\LL	.	.	16G#\LL	.	16g#\LL	.	4r	.	4r	.	.	.	.	.	.	.	.	.	.
(16E\	.	.	16E\	.	(16e\	.	.	.	.	.	.	.	.	.	.	.	.	.	.
16B\	.	.	(16B\	.	16b\	.	.	.	.	.	.	.	.	.	.	.	.	.	.
16D\JJ)	.	.	16D\JJ)	.	16d\JJ)	.	.	.	.	.	.	.	.	.	.	.	.	.	.
=11	=11	=11	=11	=11	=11	=11	=11	=11	=11	=11	=11	=11	=11	=11	=11	=11	=11	=11	=11
4C#/	.	.	4C#/	.	4c#\	.	16r	.	16r	.	2ryy	2ryy	2ryy	2ryy	.	.	2ryy	2ryy	2ryy
!	!	!	!	!	!	!	!LO:TX:t=P:problem=mixed beam	!	!LO:TX:t=P:problem=mixed beam	!	!	!	!	!	!	!	!	!	!
.	.	.	.	.	.	.	16a/LL	.	16a/LL	.	.	.	.	.	.	.	.	.	.
.	.	.	.	.	.	.	16aa\	.	(16aa\	.	.	.	.	.	.	.	.	.	.
.	.	.	.	.	.	.	(16ggn\JJ	.	16ggn\JJ)	.	.	.	.	.	.	.	.	.	.
!	!	!	!	!	!	!	!	!	!LO:LB:g=original	!	!	!	!	!	!	!	!	!	!
4D/	.	.	4D/	.	4d\	.	16ee#X\LL)	.	16ee#X\LL	.	.	.	.	.	.	.	.	.	.
!	!	!	!	!	!	!	!	!	!LO:N:vis=32	!	!	!	!	!	!	!	!	!	!
.	.	.	.	.	.	.	16ff#\JJ	.	16ff#\	.	.	.	.	.	.	.	.	.	.
.	.	.	.	.	.	.	32een\LLL	.	(32een\L	.	.	.	.	.	.	.	.	.	.
.	.	.	.	.	.	.	32dd\	.	32dd\	.	.	.	.	.	.	.	.	.	.
.	.	.	.	.	.	.	(32cc#\	.	32cc#\)	.	.	.	.	.	.	.	.	.	.
.	.	.	.	.	.	.	32b\JJJ)	.	32b\JJJ	.	.	.	.	.	.	.	.	.	.
!	!	!	!	!	!	!	!LO:LB:g=original	!	!	!	!	!	!	!	!	!	!	!	!
=12	=12	=12	=12	=12	=12	=12	=12	=12	=12	=12	=12	=12	=12	=12	=12	=12	=12	=12	=12
!	!	!	!	!	!LO:SIC:v:s=8c#	!	!	!	!	!	!	!	!	!	!	!	!	!	!
!LO:TX:t=P:problem=mixed beam	!	!	!	!	!LO:TX:t=P:problem=mixed beam	!	!	!	!LO:N:vis=8.	!	!	!	!	!	!	!	!	!	!
8C#/L	.	.	8C#/L	.	8d\L	.	8ee\L	.	8ee\L	.	2ryy	2ryy	2ryy	2ryy	.	.	2ryy	2ryy	2ryy
8AA/	.	.	8AA/	.	8A/J	.	(32dd\LL	.	32dd\LL	.	.	.	.	.	.	.	.	.	.
.	.	.	.	.	.	.	32cc#\	.	(32cc#\	.	.	.	.	.	.	.	.	.	.
.	.	.	.	.	.	.	32b\	.	32b\	.	.	.	.	.	.	.	.	.	.
.	.	.	.	.	.	.	32a\JJJ)	.	32a\JJJ)	.	.	.	.	.	.	.	.	.	.
!	!	!	!	!	!LO:TX:t=P:problem=mixed beam	!	!	!	!	!	!	!	!	!	!	!	!	!	!
8E\	.	.	8E/	.	8e\L	.	8A/L	.	8c#/L	.	.	.	.	.	.	.	.	.	.
8EE/J	.	.	8EE/J	.	8E/J	.	8G#t/J	.	8BT/J	.	.	.	.	.	.	.	.	.	.
=13	=13	=13	=13	=13	=13	=13	=13	=13	=13	=13	=13	=13	=13	=13	=13	=13	=13	=13	=13
*	*	*	*	*	*tremolo	*	*	*	*	*	*	*	*	*	*	*	*	*	*
!	!	!	!	!	!	!	!	!	!	!	!	!	!	!	!LO:N:vis=0	!	!	!	!
8AA/L	.	.	8AA/L	.	8A/L	.	8A/L	.	16A/LL	.	2ryy	2ryy	2ryy	2ryy	1r	.	2ryy	2ryy	2ryy
.	.	.	.	.	.	.	.	.	(16a/	.	.	.	.	.	.	.	.	.	.
8AA/	.	.	8AA/	.	8A/	.	16r	.	16cc#/	.	.	.	.	.	.	.	.	.	.
.	.	.	.	.	.	.	16c#/Jk	.	16ee/JJ)	.	.	.	.	.	.	.	.	.	.
8AA/	.	.	8AA/	.	8A/	.	16f#/LL	.	16dd\LL	.	.	.	.	.	.	.	.	.	.
.	.	.	.	.	.	.	16e/JJ	.	16cc#\	.	.	.	.	.	.	.	.	.	.
!	!	!	!	!	!	!	!	!	!LO:N:vis=32	!	!	!	!	!	!	!	!	!	!
.	.	.	.	.	.	.	16qqe/	.	16qqcc#/	.	.	.	.	.	.	.	.	.	.
8AA/J	.	.	8AA/J	.	8A/J	.	(16d/LL	.	(16b\	.	.	.	.	.	.	.	.	.	.
.	.	.	.	.	.	.	32c#/L	.	32a\L	.	.	.	.	.	.	.	.	.	.
.	.	.	.	.	.	.	32B/JJJ)	.	32g#\JJJ)	.	.	.	.	.	.	.	.	.	.
=14	=14	=14	=14	=14	=14	=14	=14	=14	=14	=14	=14	=14	=14	=14	=14	=14	=14	=14	=14
*tremolo	*	*	*	*	*	*	*	*	*	*	*	*	*	*	*	*	*	*	*
!	!	!	!	!	!	!	!	!	!LO:TX:t=P:problem=mixed beam	!	!	!	!	!	!	!	!	!	!
8AA/L	.	.	8AA/L	.	8A/L	.	4c#/	.	8a/L	.	2ryy	2ryy	2ryy	2ryy	.	.	2ryy	2ryy	2ryy
8AA/	.	.	8AA/	.	8A/	.	.	.	(>16e/L	.	.	.	.	.	.	.	.	.	.
.	.	.	.	.	.	.	.	.	16ee\JJ)	.	.	.	.	.	.	.	.	.	.
8AA/	.	.	8AA/	.	8A/	.	16f#/LL	.	16dd\LL	.	.	.	.	.	.	.	.	.	.
.	.	.	.	.	.	.	16e/JJ	.	16cc#\JJ	.	.	.	.	.	.	.	.	.	.
.	.	.	.	.	.	.	16qqe/	.	8qqcc#/	.	.	.	.	.	.	.	.	.	.
8AA/J	.	.	8AA/J	.	8A/J	.	(16d/LL	.	16b/LL	.	.	.	.	.	.	.	.	.	.
.	.	.	.	.	.	.	32c#/L	.	32a/L	.	.	.	.	.	.	.	.	.	.
.	.	.	.	.	.	.	32B/JJJ)	.	32g#/JJJ	.	.	.	.	.	.	.	.	.	.
*Xtremolo	*	*	*Xtremolo	*	*Xtremolo	*	*	*	*	*	*	*	*	*	*	*	*	*	*
=15	=15	=15	=15	=15	=15	=15	=15	=15	=15	=15	=15	=15	=15	=15	=15	=15	=15	=15	=15
8AA/L	.	.	8AA/L	.	8A/L	.	16.c#/LL	.	16.a/LL	.	2ryy	2ryy	2ryy	2ryy	2r	.	2ryy	2ryy	2ryy
!	!	!	!	!	!	!	!	!	!LO:N:vis=32	!	!	!	!	!	!	!	!	!	!
.	.	.	.	.	.	.	64d/LL	.	(64b/LL	.	.	.	.	.	.	.	.	.	.
!	!	!	!	!	!	!	!	!	!LO:N:vis=32	!	!	!	!	!	!	!	!	!	!
.	.	.	.	.	.	.	64B/JJJJ	.	64g#/JJ)	.	.	.	.	.	.	.	.	.	.
8AA/J	.	.	8AA/J	.	8A/J	.	16c#'/LL	.	16a/	.	.	.	.	.	.	.	.	.	.
.	.	.	.	.	.	.	16c#'/JJ	.	16a/JJ|	.	.	.	.	.	.	.	.	.	.
4AA/	.	.	4AA/	.	4A/	.	4c#/	.	4a/	.	.	.	.	.	.	.	.	.	.
!	!	!	!LO:LB:g=original	!	!LO:LB:g=original	!	!LO:LB:g=original	!	!LO:LB:g=original	!	!	!	!	!	!	!	!	!	!
=16	=16	=16	=16	=16	=16	=16	=16	=16	=16	=16	=16	=16	=16	=16	=16	=16	=16	=16	=16
*	*	*	*	*	*	*below	*	*	*	*	*	*	*	*	*	*	*	*	*
!	!	!	!	!	!	!LO:DY:rj	!	!	!	!	!	!	!	!	!	!	!	!	!
8r	.	.	8r	.	8r	p	8r	.	8r	.	2ryy	2ryy	2ryy	2ryy	4ee\	Ve-	2ryy	2ryy	2ryy
*	*	*	*	*	*	*	*	*	*	*below	*	*	*	*	*	*	*	*	*
8A\L	.	p	8A\L	.	8a\L	.	8cc#\L	p	8ee\L	p	.	.	.	.	.	.	.	.	.
8A\	.	.	8A\	p	8a\	.	8cc#\	.	8ee\	.	.	.	.	.	16dd\LL	-ni	.	.	.
.	.	.	.	.	.	.	.	.	.	.	.	.	.	.	16cc#\JJ	.	.	.	.
8A\J	.	.	8A\J	.	8a\J	.	8cc#\J	.	8ee\J	.	.	.	.	.	16ff#\LL	o	.	.	.
.	.	.	.	.	.	.	.	.	.	.	.	.	.	.	16ee\JJ	.	.	.	.
!	!	!	!	!	!	!	!	!	!	!	!	!	!	!	!LO:LB:g=original	!	!	!	!
=17	=17	=17	=17	=17	=17	=17	=17	=17	=17	=17	=17	=17	=17	=17	=17	=17	=17	=17	=17
8r	.	.	8r	.	8r	.	8r	.	8r	.	2ryy	2ryy	2ryy	2ryy	4.ee\	Je-	2ryy	2ryy	2ryy
8G#\L	.	.	8G#\L	.	8g#\L	.	8b\L	.	8ee\L	.	.	.	.	.	.	.	.	.	.
8G#\	.	.	8G#\	.	8g#\	.	8b\	.	8ee\	.	.	.	.	.	.	.	.	.	.
8G#\J	.	.	8G#\J	.	8g#\J	.	8b\J	.	8ee\J	.	.	.	.	.	8dd\	-su	.	.	.
!LO:LB:g=original	!	!	!	!	!	!	!	!	!	!	!	!	!	!	!	!	!	!	!
=18	=18	=18	=18	=18	=18	=18	=18	=18	=18	=18	=18	=18	=18	=18	=18	=18	=18	=18	=18
.	.	.	.	.	.	.	.	.	.	.	.	.	.	.	16qqee/	.	.	.	.
8r	.	.	8r	.	8r	.	8r	.	8r	.	2ryy	2ryy	2ryy	2ryy	8dd\	cha-	2ryy	2ryy	2ryy
!LO:TX:t=P:problem=mixed beam	!	!	!LO:TX:t=P:problem=mixed beam	!	!LO:TX:t=P:problem=mixed beam	!	!	!	!	!	!	!	!	!	!	!	!	!	!
8A\L	.	.	8A\L	.	8a\L	.	4cc#\	.	16ee\LL	.	.	.	.	.	8cc#\	-re	.	.	.
.	.	.	.	.	.	.	.	.	16cc#\JJ	.	.	.	.	.	.	.	.	.	.
8A\	.	.	8A\	.	8a\	.	.	.	(16aa\LL	.	.	.	.	.	8r	.	.	.	.
.	.	.	.	.	.	.	.	.	16ee\)	.	.	.	.	.	.	.	.	.	.
8AA/J	.	.	8AA/J	.	8A/J	.	(16cc#\LL	.	(16ee\	.	.	.	.	.	16ee\LL	cor	.	.	.
.	.	.	.	.	.	.	16a\JJ)	.	16cc#\JJ)	.	.	.	.	.	16cc#\JJ	.	.	.	.
=19	=19	=19	=19	=19	=19	=19	=19	=19	=19	=19	=19	=19	=19	=19	=19	=19	=19	=19	=19
!	!	!	!	!	!	!	!LO:TX:t=P:problem=mixed beam	!	!	!	!	!	!	!	!	!	!	!	!
4D\	.	.	4D\	.	4d\	.	[8f#/L	.	8cc#\L	.	2ryy	2ryy	2ryy	2ryy	(8cc#\	feſ-	2ryy	2ryy	2ryy
.	.	.	.	.	.	.	16.f#/L]	.	16.b\L	.	.	.	.	.	16.b\)	.	.	.	.
.	.	.	.	.	.	.	32dd\JJk	.	32ff#\JJk	.	.	.	.	.	32ff#\	-sum	.	.	.
!	!	!	!	!	!	!	!LO:TX:t=P:problem=mixed beam	!	!LO:TX:t=P:problem=mixed beam	!	!	!	!	!	!	!	!	!	!
8r	.	.	8r	.	8r	.	(8dd\L	.	(8ff#\L	.	.	.	.	.	(8ff#\	re-	.	.	.
8E\	.	.	8E\	.	8e\	.	16.cc#\L)	.	16.ee\L)	.	.	.	.	.	16.ee\)	.	.	.	.
.	.	.	.	.	.	.	32d/JJk	.	32g#/JJk	.	.	.	.	.	32g#\	-cre-	.	.	.
!	!	!	!	!	!	!	!	!	!	!	!	!	!	!	!LO:LB:g=original	!	!	!	!
=20	=20	=20	=20	=20	=20	=20	=20	=20	=20	=20	=20	=20	=20	=20	=20	=20	=20	=20	=20
!LO:TX:t=P:problem=mixed beam	!	!	!LO:TX:t=P:problem=mixed beam	!	!	!	!	!	!	!	!	!	!	!	!	!	!	!	!
8.AA/L	.	.	8.AA/L	.	4e\	.	8d/L	.	8g#/L	.	2ryy	2ryy	2ryy	2ryy	8g#\L	-a	2ryy	2ryy	2ryy
.	.	.	.	.	.	.	8c#/J	.	8a/J	.	.	.	.	.	8a\J	.	.	.	.
16A\Jk	.	.	16A\Jk	.	.	.	.	.	.	.	.	.	.	.	.	.	.	.	.
16.E\LL	.	.	16.E\LL	.	4r	.	4r	.	4r	.	.	.	.	.	8r	.	.	.	.
32A\K	.	.	32A\K	.	.	.	.	.	.	.	.	.	.	.	.	.	.	.	.
16.C#\	.	.	16.C#\	.	.	.	.	.	.	.	.	.	.	.	8a\	quod	.	.	.
32E\JJk	.	.	32E\JJk	.	.	.	.	.	.	.	.	.	.	.	.	.	.	.	.
!	!	!	!LO:LB:g=original	!	!	!	!	!	!	!	!	!	!	!	!	!	!	!	!
=21	=21	=21	=21	=21	=21	=21	=21	=21	=21	=21	=21	=21	=21	=21	=21	=21	=21	=21	=21
!LO:TX:t=P:problem=mixed beam	!	!	!LO:TX:t=P:problem=mixed beam	!	!	!	!	!	!	!	!	!	!	!	!	!	!	!	!
8AA/L	.	.	8AA/L	.	8r	.	8r	.	8r	.	2ryy	2ryy	2ryy	2ryy	8.ee\	a-	2ryy	2ryy	2ryy
8A\	.	.	8A\	.	8A/L	.	16cc#\LL	.	(16ee\LL	.	.	.	.	.	.	.	.	.	.
.	.	.	.	.	.	.	16a\JJ	.	16cc#\JJ)	.	.	.	.	.	16ee\	-gi-	.	.	.
8AA/J	.	.	8AA/J	.	8A/J	.	8cc#\	.	8aa\	.	.	.	.	.	16dd\LL	-tant	.	.	.
.	.	.	.	.	.	.	.	.	.	.	.	.	.	.	16cc#\JJ	.	.	.	.
8r	.	.	8r	.	8r	.	8r	.	8r	.	.	.	.	.	16b\LL	ut	.	.	.
.	.	.	.	.	.	.	.	.	.	.	.	.	.	.	16a\JJ	.	.	.	.
!	!	!	!	!	!LO:LB:g=original	!	!	!	!LO:LB:g=original	!	!	!	!	!	!	!	!	!	!
=22	=22	=22	=22	=22	=22	=22	=22	=22	=22	=22	=22	=22	=22	=22	=22	=22	=22	=22	=22
*	*	*	*	*	*	*	*	*	*	*	*	*	*	*	*Xtuplet	*	*	*	*
8r	.	.	8r	.	8r	.	8r	.	8r	.	2ryy	2ryy	2ryy	2ryy	24g#\LL	ma-	2ryy	2ryy	2ryy
.	.	.	.	.	.	.	.	.	.	.	.	.	.	.	(24b\	.	.	.	.
.	.	.	.	.	.	.	.	.	.	.	.	.	.	.	24dd\JJ)	.	.	.	.
8E\L	.	.	8E\L	.	4e\	.	4b/	.	4dd\	.	.	.	.	.	4dd\	-re	.	.	.
8G#\	.	.	8G#\	.	.	.	.	.	.	.	.	.	.	.	.	.	.	.	.
8A\J	.	.	8A\J	.	8e\	.	8a/	.	8cc#\	.	.	.	.	.	8cc#\	ma-	.	.	.
!	!	!	!	!	!	!	!LO:LB:g=original	!	!	!	!	!	!	!	!LO:LB:g=original	!	!	!	!
=23	=23	=23	=23	=23	=23	=23	=23	=23	=23	=23	=23	=23	=23	=23	=23	=23	=23	=23	=23
.	.	.	.	.	.	.	.	.	.	.	.	.	.	.	16qqcc#/	.	.	.	.
8r	.	.	8r	.	8r	.	8r	.	8r	.	2ryy	2ryy	2ryy	2ryy	16b\LL	-lo-	2ryy	2ryy	2ryy
.	.	.	.	.	.	.	.	.	.	.	.	.	.	.	(32a#X\L	.	.	.	.
.	.	.	.	.	.	.	.	.	.	.	.	.	.	.	32b\JJJ)	.	.	.	.
!	!	!	!	!	!	!	!	!	!	!	!	!	!	!	!LO:SIC:v:s=8b	!	!	!	!
8D\L	6	.	8D\L	.	8d\L	.	8f#/L	.	8b\L	.	.	.	.	.	8cc#\	-rum	.	.	.
8D\	.	.	8D\	.	8d\	.	8f#/	.	8b\	.	.	.	.	.	8.ff#\	o-	.	.	.
8D#X\J	.	.	8D#X\J	.	8B\J	.	8f#/J	.	8b\J	.	.	.	.	.	.	.	.	.	.
.	.	.	.	.	.	.	.	.	.	.	.	.	.	.	16an\	-ne-	.	.	.
!LO:LB:g=original	!	!	!	!	!	!	!	!	!	!	!	!	!	!	!	!	!	!	!
=24	=24	=24	=24	=24	=24	=24	=24	=24	=24	=24	=24	=24	=24	=24	=24	=24	=24	=24	=24
.	.	.	.	.	.	.	.	.	.	.	.	.	.	.	8qqa/	.	.	.	.
8r	.	.	8r	.	8r	.	8r	.	8r	.	2ryy	2ryy	2ryy	2ryy	4g#\	-ra	2ryy	2ryy	2ryy
8E\L	.	.	8E\L	.	8B/L	.	16g#/LL	.	(16b/LL	.	.	.	.	.	.	.	.	.	.
.	.	.	.	.	.	.	16e/JJ	.	16g#/JJ)	.	.	.	.	.	.	.	.	.	.
8E\J	.	.	8E\J	.	8B/J	.	8b/	.	8ee\	.	.	.	.	.	8r	.	.	.	.
8r	.	.	8r	.	8r	.	8r	.	8r	.	.	.	.	.	8b\	ve-	.	.	.
=25	=25	=25	=25	=25	=25	=25	=25	=25	=25	=25	=25	=25	=25	=25	=25	=25	=25	=25	=25
8r	.	.	8r	.	8r	.	8r	.	8r	.	2ryy	2ryy	2ryy	2ryy	8.ee\	-ni	2ryy	2ryy	2ryy
8E\L	.	.	8E\L	.	8B/L	.	8g#/L	.	8ee\L	.	.	.	.	.	.	.	.	.	.
.	.	.	.	.	.	.	.	.	.	.	.	.	.	.	16b\	o	.	.	.
!	!	!	!	!	!	!	!	!	!	!	!	!	!	!	!LO:LB:g=original	!	!	!	!
8E\	.	.	8E\	.	8B/	.	8g#/	.	8ee\	.	.	.	.	.	16gg#\LL	Je-	.	.	.
.	.	.	.	.	.	.	.	.	.	.	.	.	.	.	16ee\JJ	.	.	.	.
8E\J	.	.	8E\J	.	8B/J	.	8g#/J	.	8ee\J	.	.	.	.	.	16ee\LL	-su	.	.	.
.	.	.	.	.	.	.	.	.	.	.	.	.	.	.	16b\JJ	.	.	.	.
=26	=26	=26	=26	=26	=26	=26	=26	=26	=26	=26	=26	=26	=26	=26	=26	=26	=26	=26	=26
8r	.	.	8r	.	8r	.	8r	.	8r	.	2ryy	2ryy	2ryy	2ryy	32b\LLL	cha-	2ryy	2ryy	2ryy
.	.	.	.	.	.	.	.	.	.	.	.	.	.	.	(32cc#\	.	.	.	.
.	.	.	.	.	.	.	.	.	.	.	.	.	.	.	32g#\	.	.	.	.
.	.	.	.	.	.	.	.	.	.	.	.	.	.	.	32a\JJJ)	.	.	.	.
8F#\L	7	.	8F#\L	.	8A/L	.	8a/L	.	8ee\L	.	.	.	.	.	4a\	-re	.	.	.
8F#\	.	.	8F#\	.	8A/	.	8a/	.	8ee\	.	.	.	.	.	.	.	.	.	.
8F#\J	.	.	8F#\J	.	8A/J	.	8a/J	.	8ee\J	.	.	.	.	.	(16a\LL	cor	.	.	.
.	.	.	.	.	.	.	.	.	.	.	.	.	.	.	16ff#\JJ)	.	.	.	.
!	!	!	!LO:LB:g=original	!	!LO:LB:g=original	!	!	!	!	!	!	!	!	!	!	!	!	!	!
=27	=27	=27	=27	=27	=27	=27	=27	=27	=27	=27	=27	=27	=27	=27	=27	=27	=27	=27	=27
*	*	*	*	*	*^	*	*	*	*	*	*	*	*	*	*	*	*	*	*
8r	.	.	8r	.	8r	8ryy	.	8r	.	8r	.	2ryy	2ryy	2ryy	2ryy	8.ff#\	fes-	2ryy	2ryy	2ryy
8BB/L	7 #	.	8BB/L	.	8f#/L	8B\L	.	8a/L	.	8dd#X\L	.	.	.	.	.	.	.	.	.	.
.	.	.	.	.	.	.	.	.	.	.	.	.	.	.	.	16dd#X\	-sum	.	.	.
!	!	!	!	!	!	!	!	!	!	!	!	!	!	!	!	!LO:LB:g=original	!	!	!	!
8BB/	.	.	8BB/	.	8f#/	8B\	.	8a/	.	8dd#\	.	.	.	.	.	(16aa\LL	re-	.	.	.
.	.	.	.	.	.	.	.	.	.	.	.	.	.	.	.	16ff#\JJ)	.	.	.	.
8BB/J	.	.	8BB/J	.	8f#/J	8B\J	.	8a/J	.	8dd#\J	.	.	.	.	.	(16dd#X\LL	-cre-	.	.	.
.	.	.	.	.	.	.	.	.	.	.	.	.	.	.	.	16a\JJ)	.	.	.	.
*	*	*	*	*	*v	*v	*	*	*	*	*	*	*	*	*	*	*	*	*	*
=28	=28	=28	=28	=28	=28	=28	=28	=28	=28	=28	=28	=28	=28	=28	=28	=28	=28	=28	=28
.	.	.	.	.	.	.	.	.	.	.	.	.	.	.	8qqa/	.	.	.	.
8r	.	.	8r	.	8r	.	8r	.	8r	.	2ryy	2ryy	2ryy	2ryy	4g#\	-a,	2ryy	2ryy	2ryy
8E\L	.	.	8E\L	.	8e\L	.	4g#/	.	(16.ee\LL	.	.	.	.	.	.	.	.	.	.
.	.	.	.	.	.	.	.	.	64ff#\LL	.	.	.	.	.	.	.	.	.	.
.	.	.	.	.	.	.	.	.	64gg#\JJJJ)	.	.	.	.	.	.	.	.	.	.
8G#\	.	.	8G#\	.	8g#\	.	.	.	8b/L	.	.	.	.	.	8r	.	.	.	.
8E\J	.	.	8E\J	.	8e\J	.	8g#/	.	8b/J	.	.	.	.	.	8b\	quod	.	.	.
!	!	!	!	!	!	!	!	!	!LO:LB:g=original	!	!	!	!	!	!	!	!	!	!
=29	=29	=29	=29	=29	=29	=29	=29	=29	=29	=29	=29	=29	=29	=29	=29	=29	=29	=29	=29
8D#X/L	.	.	8D#X/L	.	8d#X\L	.	8f#/	.	8b\L|	.	2ryy	2ryy	2ryy	2ryy	32b\LLL	a-	2ryy	2ryy	2ryy
.	.	.	.	.	.	.	.	.	.	.	.	.	.	.	(32cc#\	.	.	.	.
.	.	.	.	.	.	.	.	.	.	.	.	.	.	.	32b\	.	.	.	.
.	.	.	.	.	.	.	.	.	.	.	.	.	.	.	32cc#\JJJ)	.	.	.	.
8BB/	.	.	8BB/	.	8B\	.	4b/	.	8dd#X\|	.	.	.	.	.	32dd#X\LLL	.	.	.	.
.	.	.	.	.	.	.	.	.	.	.	.	.	.	.	(32ee\	.	.	.	.
.	.	.	.	.	.	.	.	.	.	.	.	.	.	.	32dd#\	.	.	.	.
.	.	.	.	.	.	.	.	.	.	.	.	.	.	.	32ee\JJJ)	.	.	.	.
!	!	!	!	!	!	!	!	!	!	!	!	!	!	!	!LO:LB:g=original	!	!	!	!
8D#/	.	.	8D#/	.	8d#\	.	.	.	8ff#\|	.	.	.	.	.	32ff#\LLL	.	.	.	.
.	.	.	.	.	.	.	.	.	.	.	.	.	.	.	(32gg#\	.	.	.	.
.	.	.	.	.	.	.	.	.	.	.	.	.	.	.	32ff#\	.	.	.	.
.	.	.	.	.	.	.	.	.	.	.	.	.	.	.	32gg#\JJJ)	.	.	.	.
8BB/J	.	.	8BB/J	.	8B\J	.	8d#X/	.	8aa\J|	.	.	.	.	.	32aa\LLL	.	.	.	.
.	.	.	.	.	.	.	.	.	.	.	.	.	.	.	32ff#\J	.	.	.	.
.	.	.	.	.	.	.	.	.	.	.	.	.	.	.	16ff#T\JJ	.	.	.	.
!LO:LB:g=original	!	!	!	!	!	!	!LO:LB:g=original	!	!	!	!	!	!	!	!	!	!	!	!
=30	=30	=30	=30	=30	=30	=30	=30	=30	=30	=30	=30	=30	=30	=30	=30	=30	=30	=30	=30
8E\L	.	.	8E\L	.	8e\	.	8e/L	.	8gg#\	.	2ryy	2ryy	2ryy	2ryy	32gg#\LLL	.	2ryy	2ryy	2ryy
.	.	.	.	.	.	.	.	.	.	.	.	.	.	.	32ee\	.	.	.	.
.	.	.	.	.	.	.	.	.	.	.	.	.	.	.	(32dd#X\	.	.	.	.
.	.	.	.	.	.	.	.	.	.	.	.	.	.	.	32ee\JJJ)	.	.	.	.
8G#\	.	.	8G#\	.	(8g#\L	.	(8b/	.	8r	.	.	.	.	.	[8b\	.	.	.	.
8F#\	.	.	8F#\	.	8f#\	.	8a/	.	8r	.	.	.	.	.	32b\LLL]	.	.	.	.
.	.	.	.	.	.	.	.	.	.	.	.	.	.	.	(32a#X\	.	.	.	.
.	.	.	.	.	.	.	.	.	.	.	.	.	.	.	32cc#\	.	.	.	.
.	.	.	.	.	.	.	.	.	.	.	.	.	.	.	32b\JJ)	.	.	.	.
8E\J	.	.	8E\J	.	8e\J)	.	8g#/J)	.	[8b/	.	.	.	.	.	[<8b\J	.	.	.	.
=31	=31	=31	=31	=31	=31	=31	=31	=31	=31	=31	=31	=31	=31	=31	=31	=31	=31	=31	=31
8D#X/L	.	.	8D#X/L	.	8d#X\L	.	8f#/	.	8b\L]|	.	2ryy	2ryy	2ryy	2ryy	32b\LLL]	.	2ryy	2ryy	2ryy
.	.	.	.	.	.	.	.	.	.	.	.	.	.	.	32cc#\	.	.	.	.
.	.	.	.	.	.	.	.	.	.	.	.	.	.	.	32b\	.	.	.	.
.	.	.	.	.	.	.	.	.	.	.	.	.	.	.	32cc#\JJJ	.	.	.	.
8BB/	.	.	8BB/	.	8B\	.	4b/	.	8dd#X'\	.	.	.	.	.	32dd#X\LLL	.	.	.	.
.	.	.	.	.	.	.	.	.	.	.	.	.	.	.	32ee\	.	.	.	.
.	.	.	.	.	.	.	.	.	.	.	.	.	.	.	32dd#\	.	.	.	.
.	.	.	.	.	.	.	.	.	.	.	.	.	.	.	32ee\JJJ	.	.	.	.
!	!	!	!	!	!	!	!	!	!	!	!	!	!	!	!LO:LB:g=original	!	!	!	!
8D#/	.	.	8D#/	.	8d#\	.	.	.	8ff#'\	.	.	.	.	.	(32ff#\LLL	.	.	.	.
.	.	.	.	.	.	.	.	.	.	.	.	.	.	.	32gg#\)	.	.	.	.
.	.	.	.	.	.	.	.	.	.	.	.	.	.	.	32ff#\	.	.	.	.
.	.	.	.	.	.	.	.	.	.	.	.	.	.	.	32gg#\JJJ	.	.	.	.
8BB/J	.	.	8BB/J	.	8B\J	.	8d#X/	.	8aa'\J	.	.	.	.	.	32aa\LLL	.	.	.	.
.	.	.	.	.	.	.	.	.	.	.	.	.	.	.	32ff#\J	.	.	.	.
.	.	.	.	.	.	.	.	.	.	.	.	.	.	.	16ff#T\JJ	.	.	.	.
!	!	!	!	!	!LO:LB:g=original	!	!	!	!	!	!	!	!	!	!	!	!	!	!
=32	=32	=32	=32	=32	=32	=32	=32	=32	=32	=32	=32	=32	=32	=32	=32	=32	=32	=32	=32
8E\	.	.	8E\	.	8B/	.	8e/	.	(16gg#\LL	.	2ryy	2ryy	2ryy	2ryy	16gg#\LL	.	2ryy	2ryy	2ryy
.	.	.	.	.	.	.	.	.	16ee\JJ)	.	.	.	.	.	16ee\	.	.	.	.
8r	.	.	8r	.	8r	.	8r	.	(32dd#X\LLL	.	.	.	.	.	32dd#X\L	.	.	.	.
.	.	.	.	.	.	.	.	.	32cc#\	.	.	.	.	.	(32cc#\	.	.	.	.
.	.	.	.	.	.	.	.	.	32b\	.	.	.	.	.	32b\	.	.	.	.
.	.	.	.	.	.	.	.	.	32a\JJJ)	.	.	.	.	.	32a\JJJ)	.	.	.	.
!	!	!	!	!	!	!	!	!	!LO:TX:t=P:problem=mixed beam	!	!	!	!	!	!LO:TX:t=P:problem=mixed beam	!	!	!	!
8E\	.	.	8E\	.	8B/	.	16r	.	(16g#/LL	.	.	.	.	.	16g#/LL	.	.	.	.
.	.	.	.	.	.	.	16ee\	.	16gg#\JJ)	.	.	.	.	.	16gg#\JJ	.	.	.	.
8r	.	.	8r	.	8r	.	32dd#X\LLL	.	32ff#\LLL	.	.	.	.	.	32ff#\LLL	.	.	.	.
.	.	.	.	.	.	.	32cc#\	.	(32ee\	.	.	.	.	.	(32ee\	.	.	.	.
.	.	.	.	.	.	.	(32b\	.	32dd#X\	.	.	.	.	.	32dd#\	.	.	.	.
.	.	.	.	.	.	.	32a\JJJ)	.	32cc#\JJJ)	.	.	.	.	.	32cc#\JJJ)	.	.	.	.
!	!	!	!LO:LB:g=original	!	!	!	!	!	!	!	!	!	!	!	!	!	!	!	!
=33	=33	=33	=33	=33	=33	=33	=33	=33	=33	=33	=33	=33	=33	=33	=33	=33	=33	=33	=33
!LO:TX:t=P:problem=mixed beam	!	!	!LO:TX:t=P:problem=mixed beam	!	!	!	!	!	!	!	!	!	!	!	!	!	!	!	!
8E\L	.	.	8E\L	.	8B/L	.	8.g#/L	.	8.b/L	.	2ryy	2ryy	2ryy	2ryy	8.b\	.	2ryy	2ryy	2ryy
8EE/	.	.	8EE/	.	8B/	.	.	.	.	.	.	.	.	.	.	.	.	.	.
.	.	.	.	.	.	.	(32a/LL	.	(32cc#/LL	.	.	.	.	.	32cc#\LLL	-gi-	.	.	.
.	.	.	.	.	.	.	32g#/JJJ)	.	32b/JJJ)	.	.	.	.	.	32b\JJJ	.	.	.	.
8AA/	.	.	8AA/	.	8c#/	.	8f#/L	.	8a/L	.	.	.	.	.	8a\	-tant	.	.	.
8AA#X/J	.	.	8AA#X/J	.	8c#/J	.	8e/J	.	8g#/J	.	.	.	.	.	8g#\	ut	.	.	.
!	!	!	!	!	!	!	!	!	!LO:LB:g=original	!	!	!	!	!	!LO:PB:g=original	!	!	!	!
=34	=34	=34	=34	=34	=34	=34	=34	=34	=34	=34	=34	=34	=34	=34	=34	=34	=34	=34	=34
!LO:TX:t=P:problem=mixed beam	!	!	!LO:TX:t=P:problem=mixed beam	!	!	!	!	!	!	!	!	!	!	!	!	!	!	!	!
8BB/L	.	.	8BB/L	.	4B/	.	8eT/L	.	8g#t/L	.	2ryy	2ryy	2ryy	2ryy	8g#/	ma-	2ryy	2ryy	2ryy
8B\J	.	.	8B\J	.	.	.	8d#X/J	.	8f#/J	.	.	.	.	.	8f#/	-re	.	.	.
16r	.	.	16r	.	16r	.	16r	.	16r	.	.	.	.	.	4dd#X\	ma-	.	.	.
16A\LL	+4r 2	.	16A\LL	.	16B/LL	.	(16f#'/LL	.	(16dd#X'\LL	.	.	.	.	.	.	.	.	.	.
16A\	.	.	16A\	.	16B/	.	16f#'/	.	16dd#'\	.	.	.	.	.	.	.	.	.	.
16A\JJ	.	.	16A\JJ	.	16B/JJ	.	16f#'/JJ)	.	16dd#'\JJ)	.	.	.	.	.	.	.	.	.	.
!LO:LB:g=original	!	!	!	!	!	!	!LO:LB:g=original	!	!	!	!	!	!	!	!	!	!	!	!
=35	=35	=35	=35	=35	=35	=35	=35	=35	=35	=35	=35	=35	=35	=35	=35	=35	=35	=35	=35
!LO:TX:t=P:problem=mixed beam	!	!	!LO:TX:t=P:problem=mixed beam	!	!	!	!	!	!	!	!	!	!	!	!	!	!	!	!
8G#\L	6	.	8G#\L	.	8B/L	.	8g#/L	.	8ee\L	.	2ryy	2ryy	2ryy	2ryy	8ee\	-lo-	2ryy	2ryy	2ryy
8A\	.	.	8A\	.	8c#/	.	(16a/L	.	(16cc#\L	.	.	.	.	.	16cc#\LL	-rum	.	.	.
.	.	.	.	.	.	.	16f#/JJ)	.	16a\JJ)	.	.	.	.	.	16a\JJ	.	.	.	.
8B\	6 4	.	8B\	.	8B/	.	8e/L	.	8g#/L	.	.	.	.	.	(8g#/	o-	.	.	.
8BB/J	x #	.	8BB/J	.	8B/J	.	8d#X/J	.	8f#T/J	.	.	.	.	.	16f#/)	.	.	.	.
.	.	.	.	.	.	.	.	.	.	.	.	.	.	.	16f#/	-ne-	.	.	.
=36	=36	=36	=36	=36	=36	=36	=36	=36	=36	=36	=36	=36	=36	=36	=36	=36	=36	=36	=36
!	!	!	!	!	!	!	!	!	!LO:TX:t=P:problem=mixed beam	!	!	!	!	!	!	!	!	!	!
8E/L	.	.	8E/L	.	4B/	.	8e/L	.	8e/L	.	2ryy	2ryy	2ryy	2ryy	8e/	-ra	2ryy	2ryy	2ryy
8E/	.	.	8E/	.	.	.	(16e/L	.	(16gg#\L	.	.	.	.	.	8b\	quod	.	.	.
.	.	.	.	.	.	.	16g#/JJ)	.	16ee\JJ)	.	.	.	.	.	.	.	.	.	.
8D#X/	.	.	8D#X/	.	8r	.	4f#/	.	16aa\LL	.	.	.	.	.	8.b\	a-	.	.	.
.	.	.	.	.	.	.	.	.	16ff#\	.	.	.	.	.	.	.	.	.	.
8BB/J	.	.	8BB/J	.	8B/	.	.	.	(16dd#X\	.	.	.	.	.	.	.	.	.	.
.	.	.	.	.	.	.	.	.	16a\JJ)	.	.	.	.	.	16b\	-gi-	.	.	.
!	!	!	!	!	!LO:LB:g=original	!	!	!	!	!	!	!	!	!	!LO:LB:g=original	!	!	!	!
=37	=37	=37	=37	=37	=37	=37	=37	=37	=37	=37	=37	=37	=37	=37	=37	=37	=37	=37	=37
4E\	.	.	4E\	.	4B/	.	16e/LL	.	16g#/LL	.	2ryy	2ryy	2ryy	2ryy	8b\	-tant	2ryy	2ryy	2ryy
.	.	.	.	.	.	.	16g#/JJ	.	16b/JJ	.	.	.	.	.	.	.	.	.	.
.	.	.	.	.	.	.	4g#/	.	4b/	.	.	.	.	.	16gg#\LL	ut	.	.	.
.	.	.	.	.	.	.	.	.	.	.	.	.	.	.	16ee\JJ	.	.	.	.
8r	.	.	8r	.	8r	.	.	.	.	.	.	.	.	.	8b\L	ma-	.	.	.
8B\	#	.	8B\	.	8d#X\	.	8f#T/	.	8aT/	.	.	.	.	.	8aT\J	.	.	.	.
=38	=38	=38	=38	=38	=38	=38	=38	=38	=38	=38	=38	=38	=38	=38	=38	=38	=38	=38	=38
!	!	!	!	!	!	!	!	!	!LO:TX:t=P:problem=mixed beam	!	!	!	!	!	!	!	!	!	!
4c#\	5	.	4c#\	.	4e\	.	8e/L	.	8g#/L	.	2ryy	2ryy	2ryy	2ryy	8g#\	-re	2ryy	2ryy	2ryy
.	.	.	.	.	.	.	8g#/J	.	8ee\J	.	.	.	.	.	8ee\	ma-	.	.	.
.	.	.	.	.	.	.	16qqb/	.	16qqdd#X/	.	.	.	.	.	8qqdd#X/	.	.	.	.
4A\	.	.	4A\	.	8r	.	8a/L	.	8cc#\L	.	.	.	.	.	8cc#\	-lo-	.	.	.
.	.	.	.	.	8c#/	.	16g#/L	.	16b\L	.	.	.	.	.	16b\LL	-rum	.	.	.
.	.	.	.	.	.	.	16f#/JJ	.	16a\JJ	.	.	.	.	.	16a\JJ	.	.	.	.
!	!	!	!LO:LB:g=original	!	!	!	!	!	!LO:LB:g=original	!	!	!	!	!	!	!	!	!	!
=39	=39	=39	=39	=39	=39	=39	=39	=39	=39	=39	=39	=39	=39	=39	=39	=39	=39	=39	=39
!LO:TX:t=P:problem=mixed beam	!	!	!LO:TX:t=P:problem=mixed beam	!	!	!	!	!	!	!	!	!	!	!	!	!	!	!	!
8B\L	.	.	8B\L	.	8B/L	.	16e/LL	.	16g#\LL	.	2ryy	2ryy	2ryy	2ryy	4g#/	o-	2ryy	2ryy	2ryy
.	.	.	.	.	.	.	(16g#'/	.	16ee\	.	.	.	.	.	.	.	.	.	.
8B\	.	.	8B\	.	8B/	.	16g#'/	.	16ee\	.	.	.	.	.	.	.	.	.	.
.	.	.	.	.	.	.	16g#'/JJ)	.	16ee\JJ	.	.	.	.	.	.	.	.	.	.
8BB/	.	.	8BB/	.	8B/	.	16r	.	16r	.	.	.	.	.	8.f#T/	.	.	.	.
.	.	.	.	.	.	.	16f#/LL	.	16dd#X\LL	.	.	.	.	.	.	.	.	.	.
8BB/J	.	.	8BB/J	.	8B/J	.	16f#/	.	16dd#\	.	.	.	.	.	.	.	.	.	.
.	.	.	.	.	.	.	16f#/JJ	.	16dd#\JJ	.	.	.	.	.	16f#/	-ne-	.	.	.
!	!	!	!	!	!	!	!LO:LB:g=original	!	!	!	!	!	!	!	!LO:LB:g=original	!	!	!	!
=40	=40	=40	=40	=40	=40	=40	=40	=40	=40	=40	=40	=40	=40	=40	=40	=40	=40	=40	=40
*	*	*	*2\right	*	*	*	*	*	*	*	*	*	*	*	*	*	*	*	*
*	*	*	*tremolo	*	*	*	*	*	*	*	*	*	*	*	*	*	*	*	*
!	!	!LO:DY:rj:t=f	!	!	!	!	!	!	!	!	!	!	!	!	!	!	!	!	!
8E\L	.	f	8E\L	.	8B/	.	16e/KL	.	16ee\KL	.	2ryy	2ryy	2ryy	2ryy	4e/	-ra.	2ryy	2ryy	2ryy
.	.	.	.	.	.	.	8g#/	.	8b\	.	.	.	.	.	.	.	.	.	.
8E\	.	.	8E\	.	8e\L	.	.	.	.	.	.	.	.	.	.	.	.	.	.
.	.	.	.	.	.	.	16g#/Jk	.	16ee\Jk	.	.	.	.	.	.	.	.	.	.
!	!	!	!	!	!	!	!	!LO:DY:t=f&colon;	!	!	!	!	!	!	!	!	!	!	!
.	.	.	.	.	.	.	8qqb/	f	16qqdd#X/	.	.	.	.	.	.	.	.	.	.
!	!	!	!	!	!	!LO:DY:t=f	!	!	!	!	!	!	!	!	!	!	!	!	!
8E\	6 4	.	8E\	.	8e\	f	8a/L	.	8cc#\L	.	.	.	.	.	4r	.	.	.	.
8E\J	x 5	.	8E\J	.	8e\J	.	16.g#/L	.	16.b\L	.	.	.	.	.	.	.	.	.	.
.	.	.	.	.	.	.	32g#/JJk	.	32ee\JJk	.	.	.	.	.	.	.	.	.	.
!LO:LB:g=original	!	!	!	!	!	!	!	!	!	!	!	!	!	!	!	!	!	!	!
=41	=41	=41	=41	=41	=41	=41	=41	=41	=41	=41	=41	=41	=41	=41	=41	=41	=41	=41	=41
*	*	*	*	*	*2\right	*	*	*	*	*	*	*	*	*	*	*	*	*	*
*	*	*	*	*	*tremolo	*	*	*	*	*	*	*	*	*	*	*	*	*	*
.	.	.	.	.	.	.	8qqb/	.	16qqdd#X/	.	.	.	.	.	.	.	.	.	.
!	!	!	!	!	!	!	!	!	!	!	!	!	!	!	!LO:N:vis=00	!	!	!	!
8E\L	.	.	8E\L	.	8e\L	.	8a/	.	8cc#\L	.	2ryy	2ryy	2ryy	2ryy	0r	.	2ryy	2ryy	2ryy
8E\	6 4	.	8E\	.	8e\	.	32g#\LLL	.	(32b\LL	.	.	.	.	.	.	.	.	.	.
.	.	.	.	.	.	.	(32b\	.	32ee\	.	.	.	.	.	.	.	.	.	.
.	.	.	.	.	.	.	32ee\	.	32gg#\	.	.	.	.	.	.	.	.	.	.
.	.	.	.	.	.	.	32gg#\JJJ)	.	32bb\JJJ)	.	.	.	.	.	.	.	.	.	.
8E\	x 5	.	8E\	.	8e\	.	8.gg#\L	.	8.bb\L	.	.	.	.	.	.	.	.	.	.
8E\J	.	.	8E\J	.	8e\J	.	.	.	.	.	.	.	.	.	.	.	.	.	.
.	.	.	.	.	.	.	32ff#\LL	.	(32aa\LL	.	.	.	.	.	.	.	.	.	.
.	.	.	.	.	.	.	32ee\JJJ	.	32gg#\JJJ)	.	.	.	.	.	.	.	.	.	.
*	*	*	*Xtremolo	*	*Xtremolo	*	*	*	*	*	*	*	*	*	*	*	*	*	*
!	!	!	!	!	!LO:LB:g=original	!	!	!	!	!	!	!	!	!	!	!	!	!	!
=42	=42	=42	=42	=42	=42	=42	=42	=42	=42	=42	=42	=42	=42	=42	=42	=42	=42	=42	=42
!LO:TX:t=P:problem=mixed beam	!	!	!LO:TX:t=P:problem=mixed beam	!	!LO:TX:t=P:problem=mixed beam	!	!	!	!	!	!	!	!	!	!	!	!	!	!
8.B\L	6 4	.	8.B\L	.	8.b\L	.	8eeT\L	.	8gg#t\L	.	2ryy	2ryy	2ryy	2ryy	.	.	2ryy	2ryy	2ryy
.	.	.	.	.	.	.	8dd#X\J	.	8ff#\J	.	.	.	.	.	.	.	.	.	.
16BB/Jk	.	.	16BB\Jk	.	16B/Jk	.	.	.	.	.	.	.	.	.	.	.	.	.	.
(16D#X\LL	.	.	(16D#X\LL	.	16d#X\LL	.	4r	.	4r	.	.	.	.	.	.	.	.	.	.
16F#\	.	.	16F#\	.	(16f#\	.	.	.	.	.	.	.	.	.	.	.	.	.	.
16B\	.	.	16B\	.	16b\	.	.	.	.	.	.	.	.	.	.	.	.	.	.
16A\JJ)	.	.	16A\JJ)	.	16a\JJ)	.	.	.	.	.	.	.	.	.	.	.	.	.	.
!	!	!	!	!	!	!	!	!	!LO:LB:g=original	!	!	!	!	!	!	!	!	!	!
=43	=43	=43	=43	=43	=43	=43	=43	=43	=43	=43	=43	=43	=43	=43	=43	=43	=43	=43	=43
4G#\	.	.	4G#\	.	4g#\	.	16r	.	16r	.	2ryy	2ryy	2ryy	2ryy	.	.	2ryy	2ryy	2ryy
!	!	!	!	!	!	!	!LO:TX:t=P:problem=mixed beam	!	!LO:TX:t=P:problem=mixed beam	!	!	!	!	!	!	!	!	!	!
.	.	.	.	.	.	.	16e/LL	.	16e/LL	.	.	.	.	.	.	.	.	.	.
.	.	.	.	.	.	.	(16ee\	.	(16ee\	.	.	.	.	.	.	.	.	.	.
.	.	.	.	.	.	.	16ddn\JJ)	.	16ddn\JJ)	.	.	.	.	.	.	.	.	.	.
4A\	.	.	4A\	.	4a\	.	16b#X\LL	.	16b#X/LL	.	.	.	.	.	.	.	.	.	.
.	.	.	.	.	.	.	16cc#\JJ	.	16cc#/JJ	.	.	.	.	.	.	.	.	.	.
.	.	.	.	.	.	.	32bn/LLL	.	(32bn/LLL	.	.	.	.	.	.	.	.	.	.
.	.	.	.	.	.	.	(32a/	.	32a/	.	.	.	.	.	.	.	.	.	.
.	.	.	.	.	.	.	32g#/	.	32g#/	.	.	.	.	.	.	.	.	.	.
.	.	.	.	.	.	.	32f#/JJJ)	.	32f#/JJJ)	.	.	.	.	.	.	.	.	.	.
=44	=44	=44	=44	=44	=44	=44	=44	=44	=44	=44	=44	=44	=44	=44	=44	=44	=44	=44	=44
!LO:TX:t=P:problem=mixed beam	!	!	!LO:TX:t=P:problem=mixed beam	!	!LO:TX:t=P:problem=mixed beam	!	!	!	!	!	!	!	!	!	!	!	!	!	!
8G#\L	.	.	8G#\L	.	8g#\L	.	8.b\L	.	8.b\L	.	2ryy	2ryy	2ryy	2ryy	.	.	2ryy	2ryy	2ryy
8E\	.	.	8E\	.	8e\	.	.	.	.	.	.	.	.	.	.	.	.	.	.
.	.	.	.	.	.	.	32gg#\LL	.	(32gg#\LL	.	.	.	.	.	.	.	.	.	.
.	.	.	.	.	.	.	32ee\JJJ	.	32ee\JJJ)	.	.	.	.	.	.	.	.	.	.
8B\	.	.	8B\	.	8b\	.	8e/L	.	8g#/L	.	.	.	.	.	.	.	.	.	.
8BB/J	.	.	8BB/J	.	8B/J	.	8d#Xt/J	.	8f#T/J	.	.	.	.	.	.	.	.	.	.
!	!	!	!	!	!	!	!LO:LB:g=original	!	!	!	!	!	!	!	!	!	!	!	!
=45	=45	=45	=45	=45	=45	=45	=45	=45	=45	=45	=45	=45	=45	=45	=45	=45	=45	=45	=45
8E\L	.	.	8E/L	.	8e\L	.	8e/L	.	8e/L	.	2ryy	2ryy	2ryy	2ryy	2r	.	2ryy	2ryy	2ryy
8BB\J	.	.	8BB/J	.	8B\J	.	8B/J	.	8B/J	.	.	.	.	.	.	.	.	.	.
4E\	.	.	4E\	.	4e\	.	4e 4G#/	.	4e 4G#/	.	.	.	.	.	.	.	.	.	.
!	!	!	!LO:LB:g=original	!	!	!	!	!	!	!	!	!	!	!	!	!	!	!	!
=46	=46	=46	=46	=46	=46	=46	=46	=46	=46	=46	=46	=46	=46	=46	=46	=46	=46	=46	=46
8r	.	.	8r	.	8r	.	8r	.	8r	.	2ryy	2ryy	2ryy	2ryy	4b\	ve-	2ryy	2ryy	2ryy
8E\L	.	.	8E\L	.	8e\L	.	8g#/L	p	8b/L	p	.	.	.	.	.	.	.	.	.
8E\	.	.	8E\	.	8e\	.	8g#/	.	8b/	.	.	.	.	.	16a\LL	-ni	.	.	.
.	.	.	.	.	.	.	.	.	.	.	.	.	.	.	16g#\JJ	.	.	.	.
8E\J	.	.	8E\J	.	8e\J	.	8g#/J	.	8b/J	.	.	.	.	.	16cc#\LL	o	.	.	.
.	.	.	.	.	.	.	.	.	.	.	.	.	.	.	16b\JJ	.	.	.	.
!LO:LB:g=original	!	!	!	!	!	!	!	!	!	!	!	!	!	!	!	!	!	!	!
=47	=47	=47	=47	=47	=47	=47	=47	=47	=47	=47	=47	=47	=47	=47	=47	=47	=47	=47	=47
8r	.	.	8r	.	8r	.	8r	.	8r	.	2ryy	2ryy	2ryy	2ryy	4.b\	Je-	2ryy	2ryy	2ryy
8D#X/L	.	.	8D#X\L	.	8d#X\L	.	8f#/L	.	8b/L	.	.	.	.	.	.	.	.	.	.
8D#/	.	.	8D#\	.	8d#\	.	8f#/	.	8b/	.	.	.	.	.	.	.	.	.	.
8D#/J	.	.	8D#\J	.	8d#\J	.	8f#/J	.	8b/J	.	.	.	.	.	8a\	-su	.	.	.
!	!	!	!	!	!LO:LB:g=original	!	!	!	!LO:PB:g=original	!	!	!	!	!	!	!	!	!	!
=48	=48	=48	=48	=48	=48	=48	=48	=48	=48	=48	=48	=48	=48	=48	=48	=48	=48	=48	=48
8r	.	.	8r	.	8r	.	8r	.	8r	.	2ryy	2ryy	2ryy	2ryy	8a\	cha-	2ryy	2ryy	2ryy
8E\L	.	.	8E\L	.	8e\L	.	4g#/	.	16b/LL	.	.	.	.	.	8g#\	-re	.	.	.
.	.	.	.	.	.	.	.	.	16g#/JJ	.	.	.	.	.	.	.	.	.	.
!	!	!	!	!	!	!	!	!	!	!	!	!	!	!	!LO:LB:g=original	!	!	!	!
8E\	.	.	8E\	.	8e\	p	.	.	(16ee\LL	.	.	.	.	.	8r	.	.	.	.
.	.	.	.	.	.	.	.	.	16b\)	.	.	.	.	.	.	.	.	.	.
8E\J	.	.	8E\J	.	8e\J	.	(16g#/LL	.	(16b\	.	.	.	.	.	(16b\LL	cor	.	.	.
.	.	.	.	.	.	.	16e/JJ)	.	16g#\JJ)	.	.	.	.	.	16g#\JJ)	.	.	.	.
=49	=49	=49	=49	=49	=49	=49	=49	=49	=49	=49	=49	=49	=49	=49	=49	=49	=49	=49	=49
4AA/	.	.	4AA/	.	4A/	.	[8c#/L	.	(8g#/L	.	2ryy	2ryy	2ryy	2ryy	(8g#/	feſ-	2ryy	2ryy	2ryy
.	.	.	.	.	.	.	16.c#/L]	.	16.f#/L)	.	.	.	.	.	16.f#/)	.	.	.	.
!	!	!	!	!	!	!	!	!	!LO:SIC:v:s=32cc#	!	!	!	!	!	!	!	!	!	!
.	.	.	.	.	.	.	32a/JJk	.	32b/JJk	.	.	.	.	.	32cc#\	-sum	.	.	.
8r	.	.	8r	.	8r	.	8a/L	.	8cc#/L	.	.	.	.	.	(8cc#\	re-	.	.	.
8BB/	.	.	8BB/	.	8B/	.	16.g#/L	.	16.b/L	.	.	.	.	.	16.b\)	.	.	.	.
.	.	.	.	.	.	.	32A/JJk	.	32d#X/JJk	.	.	.	.	.	32d#X/	-cre-	.	.	.
=50	=50	=50	=50	=50	=50	=50	=50	=50	=50	=50	=50	=50	=50	=50	=50	=50	=50	=50	=50
!	!	!	!	!	!	!	!	!	!LO:SIC:v:s=8d#	!	!	!	!	!	!LO:SIC:v:s=8d#	!	!	!	!
.	.	.	.	.	.	.	8qqA/	.	8qqd/	.	.	.	.	.	8qqd/	.	.	.	.
[4E\	.	.	4E\	.	4B/	.	4G#/	.	4e/	.	2ryy	2ryy	2ryy	2ryy	4e/	-a,	2ryy	2ryy	2ryy
16E\LL]	.	.	(16E\LL	.	4r	.	4r	.	4r	.	.	.	.	.	8r	.	.	.	.
16D#X\	.	.	16D#X\	.	.	.	.	.	.	.	.	.	.	.	.	.	.	.	.
16E\	.	.	16E\	.	.	.	.	.	.	.	.	.	.	.	8e/	quod	.	.	.
16F#\JJ	.	.	16F#\JJ)	.	.	.	.	.	.	.	.	.	.	.	.	.	.	.	.
!	!	!	!	!	!	!	!	!	!	!	!	!	!	!	!LO:LB:g=original	!	!	!	!
=51	=51	=51	=51	=51	=51	=51	=51	=51	=51	=51	=51	=51	=51	=51	=51	=51	=51	=51	=51
*	*	*	*tremolo	*	*	*	*	*	*	*	*	*	*	*	*	*	*	*	*
8Gn\L	6	.	8Gn\L	.	8r	.	8r	.	8r	.	2ryy	2ryy	2ryy	2ryy	8.ee\	a-	2ryy	2ryy	2ryy
8G\	.	.	8Gn\	.	8B/L	.	8b/L	.	8ee\L	.	.	.	.	.	.	.	.	.	.
.	.	.	.	.	.	.	.	.	.	.	.	.	.	.	16ee\	-gi-	.	.	.
8G\	.	.	8Gn\	.	8B/	.	8b/	.	8ee\	.	.	.	.	.	8ee\	-tant	.	.	.
8G\J	.	.	8Gn\J	.	8B/J	.	8b/J	.	8ee\J	.	.	.	.	.	16ggn\LL	ut	.	.	.
.	.	.	.	.	.	.	.	.	.	.	.	.	.	.	16b\JJ	.	.	.	.
=52	=52	=52	=52	=52	=52	=52	=52	=52	=52	=52	=52	=52	=52	=52	=52	=52	=52	=52	=52
*2\right	*	*	*	*	*	*	*	*	*	*	*	*	*	*	*	*	*	*	*
*tremolo	*	*	*	*	*	*	*	*	*	*	*	*	*	*	*	*	*	*	*
8F#\L	7 #	.	8F#\L	.	8r	.	8r	.	8r	.	2ryy	2ryy	2ryy	2ryy	16b\LL	ma-	2ryy	2ryy	2ryy
.	.	.	.	.	.	.	.	.	.	.	.	.	.	.	16a#X\JJ	.	.	.	.
8F#\	.	.	8F#\	.	8c#/L	.	8a#X/L	.	8ee\L	.	.	.	.	.	8a#\	-re	.	.	.
8F#\	.	.	8F#\	.	8c#/	.	8a#/	.	8ee\	.	.	.	.	.	8r	.	.	.	.
8F#\J	.	.	8F#\J	.	8c#/J	.	8a#/J	.	8ee\J	.	.	.	.	.	8f#/	ma-	.	.	.
!LO:LB:g=original	!	!	!LO:PB:g=original	!	!	!	!LO:PB:g=original	!	!	!	!	!	!	!	!LO:LB:g=original	!	!	!	!
=53	=53	=53	=53	=53	=53	=53	=53	=53	=53	=53	=53	=53	=53	=53	=53	=53	=53	=53	=53
.	.	.	.	.	.	.	.	.	.	.	.	.	.	.	8qqee/	.	.	.	.
8BB/L	.	.	8BB/L	.	8r	.	8r	.	8r	.	2ryy	2ryy	2ryy	2ryy	8dd\	-lo-	2ryy	2ryy	2ryy
8BB/	.	.	8BB/	.	8B/L	.	8b\L	.	8dd\L	.	.	.	.	.	16cc#\LL	-rum	.	.	.
.	.	.	.	.	.	.	.	.	.	.	.	.	.	.	16b\JJ	.	.	.	.
8BB/	.	.	8BB/	.	8B/	.	8b\	.	8dd\	.	.	.	.	.	8.ff#\	o-	.	.	.
8BB/J	.	.	8BB/J	.	8B/J	.	8dd\J	.	8ff#\J	.	.	.	.	.	.	.	.	.	.
.	.	.	.	.	.	.	.	.	.	.	.	.	.	.	16an\	-ne-	.	.	.
*Xtremolo	*	*	*Xtremolo	*	*	*	*	*	*	*	*	*	*	*	*	*	*	*	*
=54	=54	=54	=54	=54	=54	=54	=54	=54	=54	=54	=54	=54	=54	=54	=54	=54	=54	=54	=54
.	.	.	.	.	.	.	.	.	.	.	.	.	.	.	8qqa/	.	.	.	.
8E\L	.	.	8E\L	.	8r	.	8r	.	8r	.	2ryy	2ryy	2ryy	2ryy	4g#\	-ra,	2ryy	2ryy	2ryy
8E\J	.	.	8E\J	.	8B/L	.	16g#/LL	.	(16b/LL	.	.	.	.	.	.	.	.	.	.
.	.	.	.	.	.	.	16e/JJ	.	16g#/JJ)	.	.	.	.	.	.	.	.	.	.
4E\	.	.	4E\	.	8B/J	.	8b/	.	8ee\	.	.	.	.	.	8r	.	.	.	.
.	.	.	.	.	8r	.	8r	.	8r	.	.	.	.	.	8e/	ve-	.	.	.
!	!	!	!	!	!LO:PB:g=original	!	!	!	!LO:LB:g=original	!	!	!	!	!	!	!	!	!	!
=55	=55	=55	=55	=55	=55	=55	=55	=55	=55	=55	=55	=55	=55	=55	=55	=55	=55	=55	=55
8r	.	.	8r	.	8r	.	8r	.	8r	.	2ryy	2ryy	2ryy	2ryy	8.a\	-ni	2ryy	2ryy	2ryy
8AA/L	.	.	8AA/L	.	8e\L	.	8a/L	.	8cc#\L	.	.	.	.	.	.	.	.	.	.
.	.	.	.	.	.	.	.	.	.	.	.	.	.	.	16e/	o	.	.	.
!	!	!	!	!	!	!	!	!	!	!	!	!	!	!	!LO:LB:g=original	!	!	!	!
8AA/	.	.	8AA/	.	8e\	.	8a/	.	8cc#\	.	.	.	.	.	16cc#\LL	Je-	.	.	.
.	.	.	.	.	.	.	.	.	.	.	.	.	.	.	16a\JJ	.	.	.	.
8AA/J	.	.	8AA/J	.	8e\J	.	8a/J	.	8cc#\J	.	.	.	.	.	16ee\LL	-su	.	.	.
.	.	.	.	.	.	.	.	.	.	.	.	.	.	.	16cc#\JJ	.	.	.	.
=56	=56	=56	=56	=56	=56	=56	=56	=56	=56	=56	=56	=56	=56	=56	=56	=56	=56	=56	=56
8r	.	.	8r	.	8r	.	8r	.	8r	.	2ryy	2ryy	2ryy	2ryy	(32cc#\LLL	cha-	2ryy	2ryy	2ryy
.	.	.	.	.	.	.	.	.	.	.	.	.	.	.	32dd\	.	.	.	.
.	.	.	.	.	.	.	.	.	.	.	.	.	.	.	32ee\)	.	.	.	.
.	.	.	.	.	.	.	.	.	.	.	.	.	.	.	32dd\JJJ	.	.	.	.
8BB/L	7	.	8BB/L	.	8d\L	.	8a/L	.	8dd\L	.	.	.	.	.	4dd\	-re	.	.	.
8BB/	.	.	8BB/	.	8d\	.	8a/	.	8dd\	.	.	.	.	.	.	.	.	.	.
8BB/J	.	.	8BB/J	.	8d\J	.	8a/J	.	8dd\J	.	.	.	.	.	16cc#\LL	cor-	.	.	.
.	.	.	.	.	.	.	.	.	.	.	.	.	.	.	16b\JJ	.	.	.	.
=57	=57	=57	=57	=57	=57	=57	=57	=57	=57	=57	=57	=57	=57	=57	=57	=57	=57	=57	=57
8r	7	.	8r	.	8r	.	8r	.	8r	.	2ryy	2ryy	2ryy	2ryy	(8a\	-feſ-	2ryy	2ryy	2ryy
8E\L	.	.	8E\L	.	8B/L	.	16.g#/LL	.	(16.dd\LL	.	.	.	.	.	16.g#\)	.	.	.	.
.	.	.	.	.	.	.	32dd/JJk	.	32ff#\JJk)	.	.	.	.	.	32ff#\	-sum	.	.	.
8E\	.	.	8E\	.	8B/	.	(8dd\L	.	8ff#\L	.	.	.	.	.	(8ff#\	re-	.	.	.
8E\J	.	.	8E\J	.	8G#/J	.	16.cc#\L)	.	(16.ee\L	.	.	.	.	.	16.ee\)	.	.	.	.
.	.	.	.	.	.	.	32b\JJk	.	32dd\JJk)	.	.	.	.	.	32dd\	-cre-	.	.	.
!	!	!	!	!	!	!	!	!	!	!	!	!	!	!	!LO:LB:g=original	!	!	!	!
=58	=58	=58	=58	=58	=58	=58	=58	=58	=58	=58	=58	=58	=58	=58	=58	=58	=58	=58	=58
!LO:TX:t=P:problem=mixed beam	!	!	!LO:TX:t=P:problem=mixed beam	!	!	!	!	!	!	!	!	!	!	!	!	!	!	!	!
8.A\L	.	.	8.A\L	.	4A/	.	8b/L	.	(8ddT\L	.	2ryy	2ryy	2ryy	2ryy	8dd\L	-a	2ryy	2ryy	2ryy
.	.	.	.	.	.	.	8a/J	.	8cc#\J)	.	.	.	.	.	8cc#\J	.	.	.	.
16AA/Jk	.	.	16AA/Jk	.	.	.	.	.	.	.	.	.	.	.	.	.	.	.	.
16.A\LL	.	.	16.A\LL	.	4r	.	4r	.	4r	.	.	.	.	.	8r	.	.	.	.
32E\K	.	.	32E\K	.	.	.	.	.	.	.	.	.	.	.	.	.	.	.	.
16.C#\	.	.	16.C#\	.	.	.	.	.	.	.	.	.	.	.	8a\	quod	.	.	.
32E\JJk	.	.	32E\JJk	.	.	.	.	.	.	.	.	.	.	.	.	.	.	.	.
!LO:PB:g=original	!	!	!LO:LB:g=original	!	!	!	!	!	!	!	!	!	!	!	!	!	!	!	!
=59	=59	=59	=59	=59	=59	=59	=59	=59	=59	=59	=59	=59	=59	=59	=59	=59	=59	=59	=59
*tremolo	*	*	*tremolo	*	*	*	*	*	*	*	*	*	*	*	*	*	*	*	*
8AA/L	.	.	8AA/L	.	8r	.	8r	.	8r	.	2ryy	2ryy	2ryy	2ryy	32a\LLL	a-	2ryy	2ryy	2ryy
.	.	.	.	.	.	.	.	.	.	.	.	.	.	.	(32b\	.	.	.	.
.	.	.	.	.	.	.	.	.	.	.	.	.	.	.	32a\	.	.	.	.
.	.	.	.	.	.	.	.	.	.	.	.	.	.	.	32b\JJJ)	.	.	.	.
8AA/	.	.	8AA/	.	8A/L	.	8a\L	.	8cc#\L	.	.	.	.	.	(32cc#\LLL	.	.	.	.
.	.	.	.	.	.	.	.	.	.	.	.	.	.	.	32dd\	.	.	.	.
.	.	.	.	.	.	.	.	.	.	.	.	.	.	.	32cc#\)	.	.	.	.
.	.	.	.	.	.	.	.	.	.	.	.	.	.	.	32dd\JJJ	.	.	.	.
8AA/	.	.	8AA/	.	8A/	.	8cc#\	.	8ee\	.	.	.	.	.	(32ee\LLL	.	.	.	.
.	.	.	.	.	.	.	.	.	.	.	.	.	.	.	32ff#\	.	.	.	.
.	.	.	.	.	.	.	.	.	.	.	.	.	.	.	32ee\)	.	.	.	.
.	.	.	.	.	.	.	.	.	.	.	.	.	.	.	32ff#\JJJ	.	.	.	.
8AA/J	.	.	8AA/J	.	8A/J	.	8ee\J	.	8ggn\J	.	.	.	.	.	(32ggn\LLL	.	.	.	.
.	.	.	.	.	.	.	.	.	.	.	.	.	.	.	32ee\J)	.	.	.	.
.	.	.	.	.	.	.	.	.	.	.	.	.	.	.	16eeT\JJ	.	.	.	.
!	!	!	!	!	!	!	!LO:LB:g=original	!	!	!	!	!	!	!	!LO:LB:g=original	!	!	!	!
=60	=60	=60	=60	=60	=60	=60	=60	=60	=60	=60	=60	=60	=60	=60	=60	=60	=60	=60	=60
8D/L	.	.	8D\L	.	8r	.	8r	.	8r	.	2ryy	2ryy	2ryy	2ryy	32ff#\LLL	.	2ryy	2ryy	2ryy
.	.	.	.	.	.	.	.	.	.	.	.	.	.	.	32dd\	.	.	.	.
.	.	.	.	.	.	.	.	.	.	.	.	.	.	.	32cc#\	.	.	.	.
.	.	.	.	.	.	.	.	.	.	.	.	.	.	.	32dd\JJJ	.	.	.	.
8D/	.	.	8D\	.	8A/L	.	8dd\L	.	8ff#\L	.	.	.	.	.	8a\	.	.	.	.
8D/	.	.	8D\	.	8A/	.	8dd\	.	8ff#\	.	.	.	.	.	32a\LLL	.	.	.	.
.	.	.	.	.	.	.	.	.	.	.	.	.	.	.	32dd\	.	.	.	.
.	.	.	.	.	.	.	.	.	.	.	.	.	.	.	32cc#\	.	.	.	.
.	.	.	.	.	.	.	.	.	.	.	.	.	.	.	32dd\JJJ	.	.	.	.
8D/J	.	.	8D\J	.	8A/J	.	8dd\J	.	8ff#\J	.	.	.	.	.	32ff#\LLL	.	.	.	.
.	.	.	.	.	.	.	.	.	.	.	.	.	.	.	32dd\	.	.	.	.
.	.	.	.	.	.	.	.	.	.	.	.	.	.	.	32aa\	.	.	.	.
.	.	.	.	.	.	.	.	.	.	.	.	.	.	.	32ff#\JJJ	.	.	.	.
!	!	!	!	!	!LO:LB:g=original	!	!	!	!	!	!	!	!	!	!	!	!	!	!
=61	=61	=61	=61	=61	=61	=61	=61	=61	=61	=61	=61	=61	=61	=61	=61	=61	=61	=61	=61
8C#/L	.	.	8C#/L	.	8r	.	8r	.	8r	.	2ryy	2ryy	2ryy	2ryy	32ee\LLL	.	2ryy	2ryy	2ryy
.	.	.	.	.	.	.	.	.	.	.	.	.	.	.	(32cc#\	.	.	.	.
.	.	.	.	.	.	.	.	.	.	.	.	.	.	.	32b\	.	.	.	.
.	.	.	.	.	.	.	.	.	.	.	.	.	.	.	32cc#\JJ)	.	.	.	.
8C#/	.	.	8C#/	.	8A/L	.	8a/L	.	8ee\L	.	.	.	.	.	8a\J	.	.	.	.
8C#/	.	.	8C#/	.	8A/	.	8a/	.	8ee\	.	.	.	.	.	32a\LLL	.	.	.	.
.	.	.	.	.	.	.	.	.	.	.	.	.	.	.	(32cc#\	.	.	.	.
.	.	.	.	.	.	.	.	.	.	.	.	.	.	.	32b\	.	.	.	.
.	.	.	.	.	.	.	.	.	.	.	.	.	.	.	32cc#\JJJ)	.	.	.	.
8C#/J	.	.	8C#/J	.	8A/J	.	8a/J	.	8ee\J	.	.	.	.	.	(32ee\LLL	.	.	.	.
.	.	.	.	.	.	.	.	.	.	.	.	.	.	.	32cc#\	.	.	.	.
.	.	.	.	.	.	.	.	.	.	.	.	.	.	.	32aa\	.	.	.	.
.	.	.	.	.	.	.	.	.	.	.	.	.	.	.	32ee\JJJ)	.	.	.	.
*Xtremolo	*	*	*Xtremolo	*	*	*	*	*	*	*	*	*	*	*	*	*	*	*	*
!	!	!	!	!	!	!	!	!	!	!	!	!	!	!	!LO:LB:g=original	!	!	!	!
=62	=62	=62	=62	=62	=62	=62	=62	=62	=62	=62	=62	=62	=62	=62	=62	=62	=62	=62	=62
8BB/L	.	.	8BB/L	.	8r	.	8r	.	8r	.	2ryy	2ryy	2ryy	2ryy	32dd\LLL	.	2ryy	2ryy	2ryy
.	.	.	.	.	.	.	.	.	.	.	.	.	.	.	(32b\	.	.	.	.
.	.	.	.	.	.	.	.	.	.	.	.	.	.	.	32a\	.	.	.	.
.	.	.	.	.	.	.	.	.	.	.	.	.	.	.	32b\JJ)	.	.	.	.
8E/	.	.	8E/	.	8G#/L	.	8b/L	.	8dd\L	.	.	.	.	.	8g#\J	.	.	.	.
8E/	.	.	8E/	.	8G#/	.	8b/	.	8dd\	.	.	.	.	.	(32g#\LLL	.	.	.	.
.	.	.	.	.	.	.	.	.	.	.	.	.	.	.	32a\	.	.	.	.
.	.	.	.	.	.	.	.	.	.	.	.	.	.	.	32b\	.	.	.	.
.	.	.	.	.	.	.	.	.	.	.	.	.	.	.	32cc#\JJJ)	.	.	.	.
8E/J	.	.	8E/J	.	8G#/J	.	8b/J	.	8dd\J	.	.	.	.	.	(32dd\LLL	.	.	.	.
.	.	.	.	.	.	.	.	.	.	.	.	.	.	.	32b\	.	.	.	.
.	.	.	.	.	.	.	.	.	.	.	.	.	.	.	32ee\	.	.	.	.
.	.	.	.	.	.	.	.	.	.	.	.	.	.	.	32dd\JJJ)	.	.	.	.
=63	=63	=63	=63	=63	=63	=63	=63	=63	=63	=63	=63	=63	=63	=63	=63	=63	=63	=63	=63
8AA/	.	.	8AA/	.	8A/	.	8a/	.	8cc#\	.	2ryy	2ryy	2ryy	2ryy	16cc#\LL	.	2ryy	2ryy	2ryy
.	.	.	.	.	.	.	.	.	.	.	.	.	.	.	16aa\	.	.	.	.
8r	.	.	8r	.	8r	.	8r	.	8r	.	.	.	.	.	32gg#\L	.	.	.	.
.	.	.	.	.	.	.	.	.	.	.	.	.	.	.	(32ff#\	.	.	.	.
.	.	.	.	.	.	.	.	.	.	.	.	.	.	.	32ee\	.	.	.	.
.	.	.	.	.	.	.	.	.	.	.	.	.	.	.	32dd\JJJ)	.	.	.	.
8AA/	.	.	8AA/	.	8A/	.	8cc#\	.	8aa\	.	.	.	.	.	16cc#\LL	.	.	.	.
.	.	.	.	.	.	.	.	.	.	.	.	.	.	.	16ee\	.	.	.	.
8r	.	.	8r	.	8r	.	8r	.	8r	.	.	.	.	.	32dd\L	.	.	.	.
.	.	.	.	.	.	.	.	.	.	.	.	.	.	.	(32cc#\	.	.	.	.
.	.	.	.	.	.	.	.	.	.	.	.	.	.	.	32b\	.	.	.	.
.	.	.	.	.	.	.	.	.	.	.	.	.	.	.	32a\JJJ)	.	.	.	.
!	!	!	!	!	!	!	!	!	!LO:LB:g=original	!	!	!	!	!	!	!	!	!	!
=64	=64	=64	=64	=64	=64	=64	=64	=64	=64	=64	=64	=64	=64	=64	=64	=64	=64	=64	=64
16r	.	.	16r	.	16r	.	16r	.	16r	.	2ryy	2ryy	2ryy	2ryy	4g#/	.	2ryy	2ryy	2ryy
(16BB'/LL	6\	.	(16BB'/LL	.	(16B'/LL	.	(16g#'/LL	.	(16dd'\LL	.	.	.	.	.	.	.	.	.	.
16BB'/	.	.	16BB'/	.	16B'/	.	16g#'/	.	16dd'\	.	.	.	.	.	.	.	.	.	.
16BB'/JJ)	.	.	16BB'/JJ)	.	16B'/JJ)	.	16g#'/JJ)	.	16dd'\JJ)	.	.	.	.	.	.	.	.	.	.
16r	.	.	16r	.	16r	.	16r	.	16r	.	.	.	.	.	4gn/	.	.	.	.
(16C#'/LL	6\	.	(16C#'/LL	.	(16c#X'/LL	.	(16gn'/LL	.	(16ee'\LL	.	.	.	.	.	.	.	.	.	.
16C#'/	.	.	16C#'/	.	16c#'/	.	16g'/	.	16ee'\	.	.	.	.	.	.	.	.	.	.
16C#'/JJ)	.	.	16C#'/JJ)	.	16c#'/JJ)	.	16g'/JJ)	.	16ee'\JJ)	.	.	.	.	.	.	.	.	.	.
!LO:LB:g=original	!	!	!	!	!	!	!	!	!	!	!	!	!	!	!LO:PB:g=original	!	!	!	!
=65	=65	=65	=65	=65	=65	=65	=65	=65	=65	=65	=65	=65	=65	=65	=65	=65	=65	=65	=65
!	!	!	!	!	!	!	!LO:TX:t=P:problem=mixed beam	!	!	!	!	!	!	!	!	!	!	!	!
8D/L	.	.	8D\L	.	8d\L	.	8.f#/L	.	8.dd\L	.	2ryy	2ryy	2ryy	2ryy	8.f#/	.	2ryy	2ryy	2ryy
8D/	.	.	8D\	.	8d\	.	.	.	.	.	.	.	.	.	.	.	.	.	.
.	.	.	.	.	.	.	16dd\Jk	.	16ff#\Jk	.	.	.	.	.	16ff#\	-gi-	.	.	.
.	.	.	.	.	.	.	8qqcc#/	.	8qqee/	.	.	.	.	.	8qqee/	.	.	.	.
8D/	.	.	8D\	.	8d\	.	8b/L	.	8dd\L	.	.	.	.	.	8dd\	-tant	.	.	.
8D#X/J	7 5	.	8D#X\J	.	8d#X\J	.	8a/J	.	8cc#\J	.	.	.	.	.	8cc#\	ut	.	.	.
!	!	!	!	!	!LO:LB:g=original	!	!LO:LB:g=original	!	!	!	!	!	!	!	!	!	!	!	!
=66	=66	=66	=66	=66	=66	=66	=66	=66	=66	=66	=66	=66	=66	=66	=66	=66	=66	=66	=66
.	.	.	.	.	.	.	8qqb/	.	.	.	.	.	.	.	.	.	.	.	.
4E\	6 4	.	4E\	.	4e\	.	8aT/L	.	8cc#t\L	.	2ryy	2ryy	2ryy	2ryy	8cc#\	ma-	2ryy	2ryy	2ryy
.	5 3	.	.	.	.	.	8g#/J	.	8b\J	.	.	.	.	.	8b\	-re	.	.	.
16r	.	.	16r	.	16r	.	16r	.	16r	.	.	.	.	.	4ee\	ma-	.	.	.
16Dn/LL	.	.	16Dn\LL	.	(16B/LL	.	(16ee'\LL	.	(16gg#'\LL	.	.	.	.	.	.	.	.	.	.
16D/	.	.	16D\	.	16B/	.	16ee'\	.	16gg#'\	.	.	.	.	.	.	.	.	.	.
!	!	!	!	!	!LO:TX:b:t=...	!	!	!	!	!	!	!	!	!	!	!	!	!	!
16D/JJ	.	.	16D\JJ	.	16B/JJ)	.	16ee'\JJ)	.	16gg#'\JJ)	.	.	.	.	.	.	.	.	.	.
!	!	!	!LO:LB:g=original	!	!	!	!	!	!	!	!	!	!	!	!	!	!	!	!
=67	=67	=67	=67	=67	=67	=67	=67	=67	=67	=67	=67	=67	=67	=67	=67	=67	=67	=67	=67
8C#/L	.	.	8C#/L	.	8c#\L	.	16ee\LL	.	8aa\L	.	2ryy	2ryy	2ryy	2ryy	16ee\LL	-lo-	2ryy	2ryy	2ryy
.	.	.	.	.	.	.	(16ee#X\	.	.	.	.	.	.	.	16ee#X\JJ	.	.	.	.
8D/	.	.	8D/	.	8d\	.	16ff#\)	.	16ff#\L	.	.	.	.	.	16ff#\LL	-rum	.	.	.
.	.	.	.	.	.	.	32dd\L	.	16dd\JJ	.	.	.	.	.	16dd\JJ	.	.	.	.
.	.	.	.	.	.	.	32b\JJJ	.	.	.	.	.	.	.	.	.	.	.	.
8E/	.	.	8E/	.	8e\	.	8a/L	.	8cc#\L	.	.	.	.	.	8cc#\	o-	.	.	.
8E/J	.	.	8E/J	.	8e\J	.	8g#/J	.	8bT\J	.	.	.	.	.	16.bT\	.	.	.	.
.	.	.	.	.	.	.	.	.	.	.	.	.	.	.	32b\	-ne-	.	.	.
!	!	!	!	!	!	!	!	!	!	!	!	!	!	!	!LO:LB:g=original	!	!	!	!
=68	=68	=68	=68	=68	=68	=68	=68	=68	=68	=68	=68	=68	=68	=68	=68	=68	=68	=68	=68
!	!	!	!	!	!	!	!	!	!LO:TX:t=P:problem=mixed beam	!	!	!	!	!	!	!	!	!	!
8A\L	.	.	8A\L	.	4e\	.	8a/L	.	8a/L	.	2ryy	2ryy	2ryy	2ryy	8a\	-ra,	2ryy	2ryy	2ryy
8A\	.	.	8A\	.	.	.	(16a/L	.	(16ccc#\L	.	.	.	.	.	8ee\	quod	.	.	.
.	.	.	.	.	.	.	16cc#/JJ)	.	16aa\JJ)	.	.	.	.	.	.	.	.	.	.
8G#\	.	.	8G#\	.	8r	.	4b/	.	16ddd\LL	.	.	.	.	.	8.ee\	a-	.	.	.
.	.	.	.	.	.	.	.	.	(16bb\	.	.	.	.	.	.	.	.	.	.
8E\J	.	.	8E\J	.	8e\	.	.	.	(16gg#\)	.	.	.	.	.	.	.	.	.	.
.	.	.	.	.	.	.	.	.	16dd\JJ)	.	.	.	.	.	16ee\	-gi-	.	.	.
=69	=69	=69	=69	=69	=69	=69	=69	=69	=69	=69	=69	=69	=69	=69	=69	=69	=69	=69	=69
4A\	.	.	4A\	.	4e\	.	8a/L	.	8cc#\L	.	2ryy	2ryy	2ryy	2ryy	8ee\	-tant	2ryy	2ryy	2ryy
.	.	.	.	.	.	.	8cc#/J	.	16aa\L	.	.	.	.	.	16aa\LL	ut	.	.	.
.	.	.	.	.	.	.	.	.	16ee\JJ	.	.	.	.	.	16ee\JJ	.	.	.	.
.	.	.	.	.	.	.	8qqcc#/	.	8qqee/	.	.	.	.	.	8qqee/	.	.	.	.
8r	.	.	8r	.	8r	.	4b/	.	4ddT\	.	.	.	.	.	4ddT\	ma-	.	.	.
8E\	7	.	8E\	.	8g#\	.	.	.	.	.	.	.	.	.	.	.	.	.	.
!	!	!	!	!	!	!	!	!	!LO:LB:g=original	!	!	!	!	!	!	!	!	!	!
=70	=70	=70	=70	=70	=70	=70	=70	=70	=70	=70	=70	=70	=70	=70	=70	=70	=70	=70	=70
4F#\	5	.	4F#\	.	4a\	.	8a/L	.	8cc#\L	.	2ryy	2ryy	2ryy	2ryy	8cc#\	-re	2ryy	2ryy	2ryy
.	.	.	.	.	.	.	8cc#/J	.	8aa\J	.	.	.	.	.	8aa\	ma-	.	.	.
.	.	.	.	.	.	.	16qqee/	.	8qqgg#/	.	.	.	.	.	8qqgg#/	.	.	.	.
4D\	.	.	4D\	.	8r	.	8dd\L	.	8ff#\L	.	.	.	.	.	8ff#\	-lo-	.	.	.
.	.	.	.	.	8f#\	.	(16cc#\L	.	16ee\L	.	.	.	.	.	16ee\LL	-rum	.	.	.
.	.	.	.	.	.	.	16b\JJ)	.	16dd\JJ	.	.	.	.	.	16dd\JJ	.	.	.	.
!LO:LB:g=original	!	!	!	!	!	!	!	!	!	!	!	!	!	!	!LO:LB:g=original	!	!	!	!
=71	=71	=71	=71	=71	=71	=71	=71	=71	=71	=71	=71	=71	=71	=71	=71	=71	=71	=71	=71
*tremolo	*	*	*tremolo	*	*tremolo	*	*	*	*	*	*	*	*	*	*	*	*	*	*
8E\L	.	.	8E\L	.	8e\L	.	16a\LL	.	16cc#\LL	.	2ryy	2ryy	2ryy	2ryy	4cc#\	o-	2ryy	2ryy	2ryy
.	.	.	.	.	.	.	(16cc#'\	.	(16aa'\	.	.	.	.	.	.	.	.	.	.
8E\	.	.	8E\	.	8e\	.	16cc#'\	.	16aa'\	.	.	.	.	.	.	.	.	.	.
.	.	.	.	.	.	.	16cc#'\JJ)	.	16aa'\JJ)	.	.	.	.	.	.	.	.	.	.
8E\	.	.	8E\	.	8e\	.	16r	.	16r	.	.	.	.	.	8.bT\	.	.	.	.
.	.	.	.	.	.	.	(16b'\LL	.	(16gg#'\LL	.	.	.	.	.	.	.	.	.	.
8E\J	.	.	8E\J	.	8e\J	.	16b'\	.	16gg#'\	.	.	.	.	.	.	.	.	.	.
.	.	.	.	.	.	.	16b'\JJ)	.	16gg#'\JJ)	.	.	.	.	.	16b\	-ne-	.	.	.
*Xtremolo	*	*	*Xtremolo	*	*Xtremolo	*	*	*	*	*	*	*	*	*	*	*	*	*	*
!	!	!	!	!	!LO:LB:g=original	!	!LO:LB:g=original	!	!	!	!	!	!	!	!	!	!	!	!
=72	=72	=72	=72	=72	=72	=72	=72	=72	=72	=72	=72	=72	=72	=72	=72	=72	=72	=72	=72
!	!	!LO:DY:t=f	!	!	!	!	!	!	!	!	!	!	!	!	!	!	!	!	!
4AA/	.	f	4AA/	f	4e\	.	16a\LL	.	16aa\LL	.	2ryy	2ryy	2ryy	2ryy	4a\	-ra	2ryy	2ryy	2ryy
.	.	.	.	.	.	.	16cc#\	.	(16ee'\	.	.	.	.	.	.	.	.	.	.
.	.	.	.	.	.	.	16cc#\	.	16ee'\	.	.	.	.	.	.	.	.	.	.
!	!	!	!	!	!	!	!	!LO:DY:t=f&colon;	!	!	!	!	!	!	!	!	!	!	!
.	.	.	.	.	.	.	16cc#\JJ	f	16ee'\JJ)	.	.	.	.	.	.	.	.	.	.
!	!	!	!	!	!	!	!LO:N:vis=8.	!	!	!	!	!	!	!	!	!	!	!	!
16r	.	.	16r	.	16r	.	8cc#/L	.	8ee\L	.	.	.	.	.	4r	.	.	.	.
!	!	!	!	!	!	!LO:DY:t=f&colon;	!	!	!	!	!	!	!	!	!	!	!	!	!
(16A'\LL	.	.	(16A'\LL	.	(16a'\LL	f	.	.	.	.	.	.	.	.	.	.	.	.	.
16A'\	.	.	16A'\)	.	16a'\)	.	(32b/LL	.	(32dd\LL	.	.	.	.	.	.	.	.	.	.
.	.	.	.	.	.	.	32a/	.	32cc#\	.	.	.	.	.	.	.	.	.	.
16A'\JJ)	.	.	16A'\JJ	.	16a'\JJ	.	32g#/)	.	32b\	.	.	.	.	.	.	.	.	.	.
.	.	.	.	.	.	.	32a/JJJ	.	32cc#\JJJ)	.	.	.	.	.	.	.	.	.	.
=73	=73	=73	=73	=73	=73	=73	=73	=73	=73	=73	=73	=73	=73	=73	=73	=73	=73	=73	=73
4E\	.	.	4E\	.	4g#\	.	16b\LL	.	(16dd\LL	.	2ryy	2ryy	2ryy	2ryy	2r	.	2ryy	2ryy	2ryy
.	.	.	.	.	.	.	16bb\JJ	.	16bb\JJ)	.	.	.	.	.	.	.	.	.	.
.	.	.	.	.	.	.	32aa\LLL	.	32aa\LLL	.	.	.	.	.	.	.	.	.	.
.	.	.	.	.	.	.	(32gg#\	.	(32gg#\	.	.	.	.	.	.	.	.	.	.
.	.	.	.	.	.	.	32ff#\	.	32ff#\	.	.	.	.	.	.	.	.	.	.
.	.	.	.	.	.	.	32ee\JJJ)	.	32ee\JJJ)	.	.	.	.	.	.	.	.	.	.
.	.	.	.	.	.	.	8qqee/	.	8qqee/	.	.	.	.	.	.	.	.	.	.
16r	.	.	16r	.	16r	.	4ddT\	.	4dd\	.	.	.	.	.	.	.	.	.	.
(16E\LL	.	.	(16E\LL	.	(16g#\LL	.	.	.	.	.	.	.	.	.	.	.	.	.	.
16F#\	.	.	16F#\	.	16a\	.	.	.	.	.	.	.	.	.	.	.	.	.	.
16G#\JJ)	.	.	16G#\JJ)	.	16b\JJ)	.	.	.	.	.	.	.	.	.	.	.	.	.	.
!	!	!	!LO:LB:g=original	!	!	!	!	!	!	!	!	!	!	!	!	!	!	!	!
=74	=74	=74	=74	=74	=74	=74	=74	=74	=74	=74	=74	=74	=74	=74	=74	=74	=74	=74	=74
!LO:TX:t=P:problem=mixed beam	!	!	!LO:TX:t=P:problem=mixed beam	!	!	!	!	!	!	!	!	!	!	!	!	!	!	!	!
8A\L	.	.	8A\L	.	8a\L	.	16cc#\LL	.	(16cc#\LL	.	2ryy	2ryy	2ryy	2ryy	8r	.	2ryy	2ryy	2ryy
.	.	.	.	.	.	.	16a\	.	16a\	.	.	.	.	.	.	.	.	.	.
!	!	!	!	!	!	!	!	!	!	!	!	!	!	!	!LO:N:vis=4	!	!	!	!
8C#/	8_ 6_	.	8C#/	.	8c#\J	.	16ee\	.	16ee\)	.	.	.	.	.	8a\	ma-	.	.	.
.	.	.	.	.	.	.	16ggn\JJ	.	16ggn\JJ	.	.	.	.	.	.	.	.	.	.
!	!	!	!	!	!	!	!	!	!	!	!	!	!	!	!LO:N:vis=4	!	!	!	!
8D/	.	.	8D/	.	8d\L	.	16ff#\LL	.	16ff#\LL	.	.	.	.	.	8a\	-lo-	.	.	.
.	.	.	.	.	.	.	16dd\	.	16dd\JJ	.	.	.	.	.	.	.	.	.	.
.	.	.	.	.	.	.	16qqdd/	.	8qqdd/	.	.	.	.	.	.	.	.	.	.
!	!	!	!	!	!	!	!	!	!	!	!	!	!	!	!LO:N:vis=4	!	!	!	!
8D#X/J	.	.	8D#X/J	.	8d#X\J	.	16cc#\	.	16cc#\LL	.	.	.	.	.	8a\	-rum	.	.	.
.	.	.	.	.	.	.	32b\L	.	32b\L	.	.	.	.	.	.	.	.	.	.
.	.X X	.	.	.	.	.	32a\JJJ	.	32a\JJJ	.	.	.	.	.	.	.	.	.	.
!	!	!	!	!	!	!	!	!	!LO:LB:g=original	!	!	!	!	!	!LO:LB:g=original	!	!	!	!
=75	=75	=75	=75	=75	=75	=75	=75	=75	=75	=75	=75	=75	=75	=75	=75-	=75	=75	=75	=75
!	!	!	!	!	!	!	!	!	!	!	!	!	!	!	!LO:N:vis=16	!	!	!	!
2E;\	6 4	.	2E;\	.	4e\	.	4e;/	.	4e;</	.	2ryy	2ryy	2ryy	2ryy	8a;;/L	o-	2ryy	2ryy	2ryy
!	!	!	!	!	!	!	!	!	!	!	!	!	!	!	!LO:N:vis=16	!	!	!	!
.	5 3	.	.	.	.	.	.	.	.	.	.	.	.	.	8e/Jk	.	.	.	.
.	.	.	.	.	4r	.	4r	.	4r	.	.	.	.	.	16cc#\LL	.	.	.	.
.	.	.	.	.	.	.	.	.	.	.	.	.	.	.	16a\	.	.	.	.
.	.	.	.	.	.	.	.	.	.	.	.	.	.	.	16ee	.	.	.	.
.	.	.	.	.	.	.	.	.	.	.	.	.	.	.	16cc#\JJ	.	.	.	.
=76	=76	=76	=76	=76	=76	=76	=76	=76	=76	=76	=76	=76	=76	=76	=76-	=76	=76	=76	=76
2ryy	.	.	2ryy	.	2ryy	.	2ryy	.	2ryy	.	2ryy	2ryy	2ryy	2ryy	4aa;\	.	2ryy	2ryy	2ryy
.	.	.	.	.	.	.	.	.	.	.	.	.	.	.	16aa\LL	.	.	.	.
.	.	.	.	.	.	.	.	.	.	.	.	.	.	.	16gg#\	.	.	.	.
.	.	.	.	.	.	.	.	.	.	.	.	.	.	.	16aa\	.	.	.	.
.	.	.	.	.	.	.	.	.	.	.	.	.	.	.	16gg#JJ	.	.	.	.
=77	=77	=77	=77	=77	=77	=77	=77	=77	=77	=77	=77	=77	=77	=77	=77-	=77	=77	=77	=77
2ryy	.	.	2ryy	.	2ryy	.	2ryy	.	2ryy	.	2ryy	2ryy	2ryy	2ryy	16aa\LL	.	2ryy	2ryy	2ryy
.	.	.	.	.	.	.	.	.	.	.	.	.	.	.	16gg#\	.	.	.	.
.	.	.	.	.	.	.	.	.	.	.	.	.	.	.	16ff#\	.	.	.	.
.	.	.	.	.	.	.	.	.	.	.	.	.	.	.	16ee#\JJ	.	.	.	.
.	.	.	.	.	.	.	.	.	.	.	.	.	.	.	16ff#\LL	.	.	.	.
.	.	.	.	.	.	.	.	.	.	.	.	.	.	.	16ee#X\	.	.	.	.
.	.	.	.	.	.	.	.	.	.	.	.	.	.	.	16ff#\	.	.	.	.
.	.	.	.	.	.	.	.	.	.	.	.	.	.	.	16ee#X\JJ	.	.	.	.
=78	=78	=78	=78	=78	=78	=78	=78	=78	=78	=78	=78	=78	=78	=78	=78-	=78	=78	=78	=78
2ryy	.	.	2ryy	.	2ryy	.	2ryy	.	2ryy	.	2ryy	2ryy	2ryy	2ryy	32ff#LLL	.	2ryy	2ryy	2ryy
.	.	.	.	.	.	.	.	.	.	.	.	.	.	.	32dd\	.	.	.	.
.	.	.	.	.	.	.	.	.	.	.	.	.	.	.	32cc#	.	.	.	.
.	.	.	.	.	.	.	.	.	.	.	.	.	.	.	32b\JJJ	.	.	.	.
.	.	.	.	.	.	.	.	.	.	.	.	.	.	.	32a\LLL	.	.	.	.
.	.	.	.	.	.	.	.	.	.	.	.	.	.	.	32a\	.	.	.	.
.	.	.	.	.	.	.	.	.	.	.	.	.	.	.	32b\JJJ	.	.	.	.
.	.	.	.	.	.	.	.	.	.	.	.	.	.	.	32ryy	.	.	.	.
!	!	!	!	!	!	!	!	!	!	!	!	!	!	!	!LO:N:vis=4	!	!	!	!
.	.	.	.	.	.	.	.	.	.	.	.	.	.	.	8.b\	.	.	.	.
.	.	.	.	.	.	.	.	.	.	.	.	.	.	.	16a\	-ne-	.	.	.
=79	=79	=79	=79	=79	=79	=79	=79	=79	=79	=79	=79	=79	=79	=79	=79	=79	=79	=79	=79
*tremolo	*	*	*tremolo	*	*	*	*	*	*	*	*	*	*	*	*	*	*	*	*
!	!	!	!	!	!	!	!LO:N:vis=8	!	!	!	!	!	!	!	!LO:N:vis=2	!	!	!	!
8AA/L	.	.	8AA/L	.	8A/L	.	16r	.	16r	.	2ryy	2ryy	2ryy	2ryy	4a/	-ra	2ryy	2ryy	2ryy
.	.	.	.	.	.	.	8c#/L	.	8e/L	.	.	.	.	.	.	.	.	.	.
8AA/	.	.	8AA/	.	8A/	f	.	.	.	.	.	.	.	.	.	.	.	.	.
!	!	!	!	!	!	!	!	!	!	!LO:DY:t=f&colon;	!	!	!	!	!	!	!	!	!
.	.	.	.	.	.	.	16c#/Jk	.	16a/Jk	f	.	.	.	.	.	.	.	.	.
.	.	.	.	.	.	.	8qqe/	.	16qqg#/	.	.	.	.	.	.	.	.	.	.
8AA/	.	.	8AA/	.	8A/	.	8dT/L	.	(8f#T/L	.	.	.	.	.	4r	.	.	.	.
8AA/J	.	.	8AA/J	.	8A/J	.	16.c#/L	.	16.e/L)	.	.	.	.	.	.	.	.	.	.
.	.	.	.	.	.	.	32c#/JJk	.	32a/JJk	.	.	.	.	.	.	.	.	.	.
!	!	!	!	!	!LO:LB:g=original	!	!LO:LB:g=original	!	!	!	!	!	!	!	!	!	!	!	!
=80	=80	=80	=80	=80	=80	=80	=80	=80	=80	=80	=80	=80	=80	=80	=80	=80	=80	=80	=80
*	*	*	*	*	*tremolo	*	*	*	*	*	*	*	*	*	*	*	*	*	*
.	.	.	.	.	.	.	8qqe/	.	16qqg#/	.	.	.	.	.	.	.	.	.	.
!	!	!	!	!	!	!	!	!	!	!	!	!	!	!	!LO:N:vis=00	!	!	!	!
8AA/L	.	.	8AA/L	.	8A/L	.	8dT/L	.	8f#/L	.	2ryy	2ryy	2ryy	2ryy	0r	.	2ryy	2ryy	2ryy
8AA/	.	.	8AA/	.	8A/	.	32c#/LL	.	32e/LL	.	.	.	.	.	.	.	.	.	.
.	.	.	.	.	.	.	(32e/	.	32a/	.	.	.	.	.	.	.	.	.	.
.	.	.	.	.	.	.	32a/	.	(32cc#/	.	.	.	.	.	.	.	.	.	.
.	.	.	.	.	.	.	32cc#/JJJ)	.	32ee/JJJ)	.	.	.	.	.	.	.	.	.	.
8AA/	.	.	8AA/	.	8A/	.	8.cc#/L	.	8.eeT\L	.	.	.	.	.	.	.	.	.	.
8AA/J	.	.	8AA/J	.	8A/J	.	.	.	.	.	.	.	.	.	.	.	.	.	.
.	.	.	.	.	.	.	(32b/LL	.	(32dd\LL	.	.	.	.	.	.	.	.	.	.
.	.	.	.	.	.	.	32a/JJJ)	.	32cc#\JJJ)	.	.	.	.	.	.	.	.	.	.
*Xtremolo	*	*	*	*	*Xtremolo	*	*	*	*	*	*	*	*	*	*	*	*	*	*
!LO:LB:g=original	!	!	!	!	!	!	!	!	!	!	!	!	!	!	!	!	!	!	!
=81	=81	=81	=81	=81	=81	=81	=81	=81	=81	=81	=81	=81	=81	=81	=81	=81	=81	=81	=81
8.E\L	.	.	8.E\L	.	8.e\L	.	8aT/L	.	8cc#t\L	.	2ryy	2ryy	2ryy	2ryy	.	.	2ryy	2ryy	2ryy
.	.	.	.	.	.	.	8g#/J	.	8b\J	.	.	.	.	.	.	.	.	.	.
16E\Jk	.	.	16E\Jk	.	16e\Jk	.	.	.	.	.	.	.	.	.	.	.	.	.	.
(16G#\LL	.	.	16G#\LL	.	16g#\LL	.	4r	.	4r	.	.	.	.	.	.	.	.	.	.
16E\	.	.	16E\	.	(16e\	.	.	.	.	.	.	.	.	.	.	.	.	.	.
16B\	.	.	(16B\	.	16b\	.	.	.	.	.	.	.	.	.	.	.	.	.	.
16D\JJ)	.	.	16D\JJ)	.	16d\JJ)	.	.	.	.	.	.	.	.	.	.	.	.	.	.
=82	=82	=82	=82	=82	=82	=82	=82	=82	=82	=82	=82	=82	=82	=82	=82	=82	=82	=82	=82
4C#/	.	.	4C#/	.	4c#/	.	16r	.	16r	.	2ryy	2ryy	2ryy	2ryy	.	.	2ryy	2ryy	2ryy
!	!	!	!	!	!	!	!LO:TX:t=P:problem=mixed beam	!	!LO:TX:t=P:problem=mixed beam	!	!	!	!	!	!	!	!	!	!
.	.	.	.	.	.	.	16a/LL	.	16a/LL	.	.	.	.	.	.	.	.	.	.
.	.	.	.	.	.	.	(16aa\	.	(16aa\	.	.	.	.	.	.	.	.	.	.
.	.	.	.	.	.	.	16ggn\JJ)	.	16ggn\JJ)	.	.	.	.	.	.	.	.	.	.
4D/	.	.	4D/	.	4d\	.	16ee#X\LL	.	16ee#X\LL	.	.	.	.	.	.	.	.	.	.
.	.	.	.	.	.	.	16ff#\	.	16ff#\JJ	.	.	.	.	.	.	.	.	.	.
.	.	.	.	.	.	.	32een\L	.	32een\LLL	.	.	.	.	.	.	.	.	.	.
.	.	.	.	.	.	.	(32dd\	.	(32dd\	.	.	.	.	.	.	.	.	.	.
.	.	.	.	.	.	.	32cc#\	.	32cc#\	.	.	.	.	.	.	.	.	.	.
.	.	.	.	.	.	.	32b\JJJ)	.	32b\JJJ)	.	.	.	.	.	.	.	.	.	.
!	!	!	!LO:LB:g=original	!	!	!	!	!	!LO:LB:g=original	!	!	!	!	!	!	!	!	!	!
=83	=83	=83	=83	=83	=83	=83	=83	=83	=83	=83	=83	=83	=83	=83	=83	=83	=83	=83	=83
8C#/L	.	.	8C#/L	.	8c#/L	.	8.ee\L	.	8.ee\L	.	2ryy	2ryy	2ryy	2ryy	.	.	2ryy	2ryy	2ryy
8AA/	.	.	8AA/	.	8A/	.	.	.	.	.	.	.	.	.	.	.	.	.	.
!	!	!	!	!	!	!	!	!	!LO:N:vis=16	!	!	!	!	!	!	!	!	!	!
.	.	.	.	.	.	.	64dd\LLL	.	64dd\LLL	.	.	.	.	.	.	.	.	.	.
!	!	!	!	!	!	!	!	!	!LO:N:vis=16	!	!	!	!	!	!	!	!	!	!
.	.	.	.	.	.	.	(64cc#\	.	(64cc#\	.	.	.	.	.	.	.	.	.	.
!	!	!	!	!	!	!	!	!	!LO:N:vis=16	!	!	!	!	!	!	!	!	!	!
.	.	.	.	.	.	.	64b\	.	64b\	.	.	.	.	.	.	.	.	.	.
!	!	!	!	!	!	!	!	!	!LO:N:vis=16	!	!	!	!	!	!	!	!	!	!
.	.	.	.	.	.	.	64a\JJJJ)	.	64a\JJJJ)	.	.	.	.	.	.	.	.	.	.
8E/	.	.	8E/	.	8e/	.	8A/L	.	8c#/L	.	.	.	.	.	.	.	.	.	.
8EE/J	.	.	8EE/J	.	8E/J	.	8G#t/J	.	8BT/J	.	.	.	.	.	.	.	.	.	.
=84	=84	=84	=84	=84	=84	=84	=84	=84	=84	=84	=84	=84	=84	=84	=84	=84	=84	=84	=84
*tremolo	*	*	*	*	*tremolo	*	*	*	*	*	*	*	*	*	*	*	*	*	*
!	!	!	!	!	!	!	!	!	!	!	!	!	!	!	!LO:N:vis=0	!	!	!	!
8AA/L	.	.	8AA/L	.	8A/L	.	8A/L	.	16A/LL	.	2ryy	2ryy	2ryy	2ryy	1r	.	2ryy	2ryy	2ryy
.	.	.	.	.	.	.	.	.	(16a/	.	.	.	.	.	.	.	.	.	.
8AA/	.	.	8AA/	.	8A/	.	16r	.	16cc#/	.	.	.	.	.	.	.	.	.	.
.	.	.	.	.	.	.	16c#/Jk	.	16ee/JJ)	.	.	.	.	.	.	.	.	.	.
!	!	!	!	!	!	!	!LO:LB:g=original	!	!	!	!	!	!	!	!	!	!	!	!
8AA/	.	.	8AA/	.	8A/	.	16f#/LL	.	16dd\LL	.	.	.	.	.	.	.	.	.	.
.	.	.	.	.	.	.	16e/	.	16cc#\JJ	.	.	.	.	.	.	.	.	.	.
.	.	.	.	.	.	.	16qqe/	.	16qqcc#/	.	.	.	.	.	.	.	.	.	.
8AA/J	.	.	8AA/J	.	8A/J	.	16d/	.	(16b/LL	.	.	.	.	.	.	.	.	.	.
.	.	.	.	.	.	.	(32c#/L	.	32a/L	.	.	.	.	.	.	.	.	.	.
.	.	.	.	.	.	.	32B/JJJ)	.	32g#/JJJ)	.	.	.	.	.	.	.	.	.	.
=85	=85	=85	=85	=85	=85	=85	=85	=85	=85	=85	=85	=85	=85	=85	=85	=85	=85	=85	=85
!	!	!	!	!	!	!	!	!	!LO:TX:t=P:problem=mixed beam	!	!	!	!	!	!	!	!	!	!
8AA/L	.	.	8AA/L	.	8A/L	.	4c#/	.	8a/L	.	2ryy	2ryy	2ryy	2ryy	.	.	2ryy	2ryy	2ryy
8AA/	.	.	8AA/	.	8A/	.	.	.	(>16e/L	.	.	.	.	.	.	.	.	.	.
.	.	.	.	.	.	.	.	.	16ee\JJ)	.	.	.	.	.	.	.	.	.	.
8AA/	.	.	8AA/	.	8A/	.	16f#/LL	.	16dd\LL	.	.	.	.	.	.	.	.	.	.
.	.	.	.	.	.	.	16e/	.	16cc#\JJ	.	.	.	.	.	.	.	.	.	.
.	.	.	.	.	.	.	16qqe/	.	16qqcc#/	.	.	.	.	.	.	.	.	.	.
8AA/J	.	.	8AA/J	.	8A/J	.	(16d/	.	(16b/LL	.	.	.	.	.	.	.	.	.	.
.	.	.	.	.	.	.	32c#/L	.	32a/L	.	.	.	.	.	.	.	.	.	.
.	.	.	.	.	.	.	32B/JJJ)	.	32g#/JJJ)	.	.	.	.	.	.	.	.	.	.
*Xtremolo	*	*	*Xtremolo	*	*Xtremolo	*	*	*	*	*	*	*	*	*	*	*	*	*	*
!	!	!	!	!	!LO:LB:g=original	!	!	!	!	!	!	!	!	!	!	!	!	!	!
=86	=86	=86	=86	=86	=86	=86	=86	=86	=86	=86	=86	=86	=86	=86	=86	=86	=86	=86	=86
!	!	!	!	!	!	!	!LO:N:vis=16.	!	!LO:N:vis=8.	!	!	!	!	!	!	!	!	!	!
8AA/L	.	.	8AA/L	.	8A/L	.	16c#/LL	.	16a/LL	.	2ryy	2ryy	2ryy	2ryy	4r	.	2ryy	2ryy	2ryy
.	.	.	.	.	.	.	32d/L	.	(32b/L	.	.	.	.	.	.	.	.	.	.
.	.	.	.	.	.	.	32B/JJJ	.	32g#/JJJ)	.	.	.	.	.	.	.	.	.	.
8AA/J	.	.	8AA/J	.	8A/J	.	16c#/LL	.	16a/LL	.	.	.	.	.	.	.	.	.	.
.	.	.	.	.	.	.	16c#/JJ	.	16a/JJ	.	.	.	.	.	.	.	.	.	.
4AA;/	.	.	4AA;</	.	4A;;/	.	4c#';/	.	4a;;/	.	.	.	.	.	8r;	.	.	.	.
!	!	!	!	!	!	!	!LO:TX:a:t=P:problem=pojedyncza kreska taktowa	!	!	!	!	!	!	!	!	!	!	!	!
.	.	.	.	.	.	.	.	.	.	.	.	.	.	.	8cc#\	ju-	.	.	.
!LO:LB:g=original	!	!	!LO:LB:g=original	!	!	!	!	!	!	!	!	!	!	!	!LO:LB:g=original	!	!	!	!
=87||	=87||	=87||	=87||	=87||	=87||	=87||	=87||	=87||	=87||	=87||	=87||	=87||	=87||	=87||	=87||	=87||	=87||	=87||	=87||
*M4/4	*	*	*M4/4	*	*M4/4	*	*M4/4	*	*M4/4	*	*M4/4	*M4/4	*M4/4	*M4/4	*M4/4	*	*M4/4	*M4/4	*M4/4
*met(c)	*	*	*met(c)	*	*met(c)	*	*met(c)	*	*met(c)	*	*met(c)	*met(c)	*met(c)	*met(c)	*met(c)	*	*met(c)	*met(c)	*met(c)
*tremolo	*	*	*tremolo	*	*tremolo	*	*	*	*	*	*	*	*	*	*	*	*	*	*
!LO:TX:a:i:t=Allo molto	!	!	!LO:TX:a:i:t=Allegro molto	!	!LO:TX:a:i:t=Allo molto	!	!LO:TX:a:t=Allo molto	!	!LO:TX:a:i:t=Allo molto	!	!	!	!	!	!LO:TX:a:i:t=allo molto	!	!	!	!
8F#\L	.	.	8F#\L	.	8A/L	p	8r	.	8r	.	1ryy	1ryy	1ryy	1ryy	4.ff#\	-va-	1ryy	1ryy	1ryy
8F#\	.	.	8F#\	.	8A/	.	8a\L	p	(8cc#\L	p	.	.	.	.	.	.	.	.	.
8F#\	.	.	8F#\	.	8A/	.	8cc#\	.	8ff#\	.	.	.	.	.	.	.	.	.	.
8F#\J	.	.	8F#\J	.	8A/J	.	8a\J	.	8cc#\J)	.	.	.	.	.	8cc#\	-re	.	.	.
!	!	!	!	!	!	!	!	!	!LO:LB:g=original	!	!	!	!	!	!	!	!	!	!
8F#\L	.	.	8F#\L	.	8A/L	.	8ff#\	.	8aa\	.	.	.	.	.	8b\L	me	.	.	.
8F#\	.	.	8F#\	.	8A/	.	8r	.	8r	.	.	.	.	.	8a\J	.	.	.	.
8F#\	.	.	8F#\	.	8A/	.	4r	.	4r	.	.	.	.	.	8g#/L	fe-	.	.	.
8F#\J	.	.	8F#\J	.	8A/J	.	.	.	.	.	.	.	.	.	8f#/J	.	.	.	.
=88	=88	=88	=88	=88	=88	=88	=88	=88	=88	=88	=88	=88	=88	=88	=88	=88	=88	=88	=88
8G#\L	6\	.	8G#\L	.	8B/L	.	8r	.	8r	.	1ryy	1ryy	1ryy	1ryy	8f#/L	-sti-	1ryy	1ryy	1ryy
8G#\	.	.	8G#\	.	8B/	.	8g#/L	.	(8b\L	.	.	.	.	.	8e#X/J	.	.	.	.
8G#\	.	.	8G#\	.	8B/	.	(8b/	.	8dd\	.	.	.	.	.	[4e#/	-na	.	.	.
8G#\J	.	.	8G#\J	.	8B/J	.	8g#/J)	.	8b\J)	.	.	.	.	.	.	.	.	.	.
!	!	!	!	!	!	!	!LO:LB:g=original	!	!	!	!	!	!	!	!	!	!	!	!
8G#\L	.	.	8G#\L	.	8B/L	.	8cc#/L	.	(8bb\L	.	.	.	.	.	4e#/]	.	.	.	.
8G#\	.	.	8G#\	.	8B/	.	(8b/	.	8gg#\)	.	.	.	.	.	.	.	.	.	.
!	!	!	!	!	!	!	!	!	!	!	!	!	!	!	!LO:LB:g=original	!	!	!	!
8G#\	.	.	8G#\	.	8B/	.	8b/	.	(8dd\	.	.	.	.	.	4b\	et	.	.	.
8G#\J	.	.	8G#\J	.	8B/J	.	8g#/J)	.	8b\J)	.	.	.	.	.	.	.	.	.	.
=89	=89	=89	=89	=89	=89	=89	=89	=89	=89	=89	=89	=89	=89	=89	=89	=89	=89	=89	=89
!	!	!	!	!	!	!	!LO:TX:t=P:problem=brak taktu	!	!	!	!	!	!	!	!	!	!	!	!
8E#X\L	5	.	8E#X\L	.	8B/L	.	1ryy	.	(8g#\L	.	1ryy	1ryy	1ryy	1ryy	4.b\	tu-	1ryy	1ryy	1ryy
8E#X\	.	.	8E#X\	.	8B/	.	.	.	8b\)	.	.	.	.	.	.	.	.	.	.
8E#X\	.	.	8E#X\	.	8B/	.	.	.	(8b\	.	.	.	.	.	.	.	.	.	.
8E#X\J	.	.	8E#X\J	.	8B/J	.	.	.	8dd\J)	.	.	.	.	.	8dd\	-a	.	.	.
*	*	*	*	*	*Xtremolo	*	*	*	*	*	*	*	*	*	*	*	*	*	*
8E#\L	.	.	8E#\L	.	8B/L	.	.	.	(8dd\L	.	.	.	.	.	8dd\L	me,	.	.	.
8E#\	.	.	8E#\	.	8B/	.	.	.	8cc#\)	.	.	.	.	.	8cc#\J	.	.	.	.
8E#\	.	.	8E#\	.	8c#/	.	.	.	(8cc#\	.	.	.	.	.	8cc#\L	di-	.	.	.
8E#\J	.	.	8E#\J	.	8c#/J	.	.	.	8b\J)	.	.	.	.	.	8b\J	.	.	.	.
!	!	!	!	!	!LO:LB:g=original	!	!	!	!	!	!	!	!	!	!	!	!	!	!
=90	=90	=90	=90	=90	=90	=90	=90	=90	=90	=90	=90	=90	=90	=90	=90	=90	=90	=90	=90
*	*	*	*	*	*tremolo	*	*	*	*tuplet	*	*	*	*	*	*tuplet	*	*	*	*
!	!	!	!	!	!	!	!	!	!LO:TUP:b:problem=klamra łukowa, kropka zamiast numeru	!	!	!	!	!	!LO:Tup:a:problem=klamra łukowa, kropka zamiast numeru	!	!	!	!
8F#\L	.	.	8F#\L	.	8c#/L	.	4f#/	.	12a/L	.	1ryy	1ryy	1ryy	1ryy	12a\L	-vi-	1ryy	1ryy	1ryy
.	.	.	.	.	.	.	.	.	12g#/	.	.	.	.	.	12g#\	.	.	.	.
8F#\	.	.	8F#\	.	8c#/	.	.	.	.	.	.	.	.	.	.	.	.	.	.
.	.	.	.	.	.	.	.	.	12f#/J	.	.	.	.	.	12f#\J	.	.	.	.
8F#\	.	.	8F#\	.	8c#/	.	8.a/L	.	8.a\L	.	.	.	.	.	2f#/	-na	.	.	.
8F#\J	.	.	8F#\J	.	8c#/J	.	.	.	.	.	.	.	.	.	.	.	.	.	.
.	.	.	.	.	.	.	16cc#/Jk	.	16cc#\Jk	.	.	.	.	.	.	.	.	.	.
!LO:LB:g=original	!	!	!	!	!	!	!	!	!	!	!	!	!	!	!	!	!	!	!
8F#\L	.	.	8F#\L	.	8c#/L	.	4a/	.	4ff#\	.	.	.	.	.	.	.	.	.	.
8F#\	.	.	8F#\	.	8c#/	.	.	.	.	.	.	.	.	.	.	.	.	.	.
8F#\	.	.	8F#\	.	8c#/	.	4r	.	4r	.	.	.	.	.	4cc#\	con-	.	.	.
8F#\J	.	.	8F#\J	.	8c#/J	.	.	.	.	.	.	.	.	.	.	.	.	.	.
!	!	!	!LO:LB:g=original	!	!	!	!	!	!	!	!	!	!	!	!LO:LB:g=original	!	!	!	!
=91	=91	=91	=91	=91	=91	=91	=91	=91	=91	=91	=91	=91	=91	=91	=91	=91	=91	=91	=91
!	!	!	!	!	!	!	!	!	!	!	!	!	!	!	!LO:N:vis=4.	!	!	!	!
8F#\L	.	.	8F#\L	.	8a\L	.	4r	.	4r	.	1ryy	1ryy	1ryy	1ryy	4ff#\	-for-	1ryy	1ryy	1ryy
8F#\	.	.	8F#\	.	8a\	.	.	.	.	.	.	.	.	.	.	.	.	.	.
8F#\	.	.	8F#\	.	8a\	.	4aa\	.	4aa\	.	.	.	.	.	8ee\L	-ta	.	.	.
8F#\J	.	.	8F#\J	.	8a\J	.	.	.	.	.	.	.	.	.	8dd\J	.	.	.	.
.	.	.	.	.	.	.	.	.	.	.	.	.	.	.	8qqcc#/	.	.	.	.
8F#\L	#4r 2	.	8F#\L	.	8a\L	.	(8aa\L	.	8aa\L	.	.	.	.	.	4.b#X\	gra-	.	.	.
8F#\	.	.	8F#\	.	8a\	.	8b#X\)	.	(8b#X\	.	.	.	.	.	.	.	.	.	.
8F#\	.	.	8F#\	.	8a\	.	(8b#\	.	8b#\	.	.	.	.	.	.	.	.	.	.
8F#\J	.	.	8F#\J	.	8a\J	.	8cc#\J)	.	8cc#\J)	.	.	.	.	.	8b#\	-ti-	.	.	.
!	!	!	!	!	!	!	!	!	!LO:LB:g=original	!	!	!	!	!	!	!	!	!	!
=92	=92	=92	=92	=92	=92	=92	=92	=92	=92	=92	=92	=92	=92	=92	=92	=92	=92	=92	=92
8E#X\L	6	.	8E#X\L	.	8g#\L	.	4cc#\	.	4cc#\	.	1ryy	1ryy	1ryy	1ryy	4cc#\	-a,	1ryy	1ryy	1ryy
8E#X\	.	.	8E#X\	.	8g#\	.	.	.	.	.	.	.	.	.	.	.	.	.	.
8E#X\	.	.	8E#X\	.	8g#\	.	8.g#/L	.	8.g#/L	.	.	.	.	.	4r	.	.	.	.
8E#X\J	.	.	8E#X\J	.	8g#\J	.	.	.	.	.	.	.	.	.	.	.	.	.	.
.	.	.	.	.	.	.	16e#X/Jk	.	16e#X/Jk	.	.	.	.	.	.	.	.	.	.
8E#\L	.	.	8E#\L	.	8g#\L	.	4c#/	.	4c#/	.	.	.	.	.	4r	.	.	.	.
8E#\	.	.	8E#\	.	8g#\	.	.	.	.	.	.	.	.	.	.	.	.	.	.
8E#\	.	.	8E#\	.	8g#\	.	[<4cc#\	.	[<4cc#\	.	.	.	.	.	4cc#\	ju-	.	.	.
8E#\J	.	.	8E#\J	.	8g#\J	.	.	.	.	.	.	.	.	.	.	.	.	.	.
=93	=93	=93	=93	=93	=93	=93	=93	=93	=93	=93	=93	=93	=93	=93	=93	=93	=93	=93	=93
8En\L	6 4 n	.	8En\L	.	8gn\L	.	8cc#\L]	.	8cc#\L]	.	1ryy	1ryy	1ryy	1ryy	8cc#\L	-va-	1ryy	1ryy	1ryy
8En\	.	.	8En\	.	8gn\	.	(8ggn\	.	(8ggn\	.	.	.	.	.	8ggn\J	.	.	.	.
8En\	.	.	8En\	.	8gn\	.	8ff#\	.	8ff#\	.	.	.	.	.	8ff#\L	-re	.	.	.
8En\J	.	.	8En\J	.	8gn\J	.	8ee\J)	.	8ee\J)	.	.	.	.	.	8ee\J	.	.	.	.
!	!	!	!	!	!	!	!	!	!	!	!	!	!	!	!LO:LB:g=original	!	!	!	!
8E\L	.	.	8E\L	.	8g\L	.	8dd\L	.	8dd\L	.	.	.	.	.	8dd\L	me	.	.	.
8E\	.	.	8E\	.	8g\	.	(8cc#\	.	(8cc#\	.	.	.	.	.	8cc#\J	.	.	.	.
8E\	.	.	8E\	.	8g\	.	8b\	.	8b\	.	.	.	.	.	8b\L	fe-	.	.	.
8E\J	.	.	8E\J	.	8g\J	.	8a#X\J)	.	8a#X\J)	.	.	.	.	.	8a#X\J	.	.	.	.
!LO:LB:g=original	!	!	!	!	!	!	!LO:LB:g=original	!	!	!	!	!	!	!	!	!	!	!	!
=94	=94	=94	=94	=94	=94	=94	=94	=94	=94	=94	=94	=94	=94	=94	=94	=94	=94	=94	=94
8D#X/L	6	.	8D#X\L	.	8f#\L	.	4b/	.	4b/	.	1ryy	1ryy	1ryy	1ryy	4b\	-sti-	1ryy	1ryy	1ryy
8D#X/	.	.	8D#X\	.	8f#\	.	.	.	.	.	.	.	.	.	.	.	.	.	.
8D#X/	.	.	8D#X\	.	8f#\	.	8.f#/L	.	8.f#/L	.	.	.	.	.	4f#/	-na,	.	.	.
8D#X/J	.	.	8D#X\J	.	8f#\J	.	.	.	.	.	.	.	.	.	.	.	.	.	.
.	.	.	.	.	.	.	16d#X/Jk	.	16d#X/Jk	.	.	.	.	.	.	.	.	.	.
8D#/L	.	.	8D#\L	.	8f#\L	.	4B/	.	4B/	.	.	.	.	.	4r	.	.	.	.
8D#/	.	.	8D#\	.	8f#\	.	.	.	.	.	.	.	.	.	.	.	.	.	.
8D#/	.	.	8D#\	.	8f#\	.	[<4b\	.	[4b/	.	.	.	.	.	4f#/	et	.	.	.
8D#/J	.	.	8D#\J	.	8f#\J	.	.	.	.	.	.	.	.	.	.	.	.	.	.
!	!	!	!LO:LB:g=original	!	!	!	!	!	!	!	!	!	!	!	!	!	!	!	!
=95	=95	=95	=95	=95	=95	=95	=95	=95	=95	=95	=95	=95	=95	=95	=95	=95	=95	=95	=95
8Dn/L	.	.	8Dn\L	.	8f#\L	.	8b\L]	.	8b\L]	.	1ryy	1ryy	1ryy	1ryy	4ff#\	tu-	1ryy	1ryy	1ryy
8Dn/	.	.	8Dn\	.	8f#\	.	(8ff#\	.	(8ff#\	.	.	.	.	.	.	.	.	.	.
8Dn/	.	.	8Dn\	.	8f#\	.	8ee\	.	8ee\	.	.	.	.	.	8ee\L	-a	.	.	.
8Dn/J	.	.	8Dn\J	.	8f#\J	.	8dd\J)	.	8dd\J)	.	.	.	.	.	8dd\J	.	.	.	.
8D/L	.	.	8D\L	.	8f#\L	.	(8cc#/L	.	8cc#\L	.	.	.	.	.	8cc#\L	me	.	.	.
8D/	.	.	8D\	.	8f#\	.	8b/	.	(8b\	.	.	.	.	.	8b\J	.	.	.	.
8D/	.	.	8D\	.	8f#\	.	8a/)	.	8a\	.	.	.	.	.	8a\L	di-	.	.	.
8D/J	.	.	8D\J	.	8f#\J	.	8g#/J	.	8g#\J)	.	.	.	.	.	8g#\J	.	.	.	.
!	!	!	!	!	!LO:LB:g=original	!	!	!	!	!	!	!	!	!	!LO:LB:g=original	!	!	!	!
=96	=96	=96	=96	=96	=96	=96	=96	=96	=96	=96	=96	=96	=96	=96	=96	=96	=96	=96	=96
8C#/L	6	.	8C#/L	.	8e\L	.	4a/	.	4a/	.	1ryy	1ryy	1ryy	1ryy	4a\	-vi-	1ryy	1ryy	1ryy
8C#/	.	.	8C#/	.	8e\	.	.	.	.	.	.	.	.	.	.	.	.	.	.
8C#/	.	.	8C#/	.	8e\	.	8.e/L	.	8.e/L	.	.	.	.	.	4e/	-na	.	.	.
8C#/J	.	.	8C#/J	.	8e\J	.	.	.	.	.	.	.	.	.	.	.	.	.	.
.	.	.	.	.	.	.	16c#/Jk	.	16c#/Jk	.	.	.	.	.	.	.	.	.	.
8C#/L	.	.	8C#/L	.	8e\L	.	4A/	.	4A/	.	.	.	.	.	4r	.	.	.	.
8C#/	.	.	8C#/	.	8e\	.	.	.	.	.	.	.	.	.	.	.	.	.	.
8C#/	.	.	8C#/	.	8e\	.	[4a/	.	[4a/	.	.	.	.	.	4a\	con-	.	.	.
8C#/J	.	.	8C#/J	.	8e\J	.	.	.	.	.	.	.	.	.	.	.	.	.	.
!	!	!	!	!	!	!	!	!	!LO:LB:g=original	!	!	!	!	!	!	!	!	!	!
=97	=97	=97	=97	=97	=97	=97	=97	=97	=97	=97	=97	=97	=97	=97	=97	=97	=97	=97	=97
8BB/L	6	.	8BB/L	.	8d\L	.	8a/L]	.	8a/L]	.	1ryy	1ryy	1ryy	1ryy	8a\L	-for-	1ryy	1ryy	1ryy
8BB/	.	.	8BB/	.	8d\	.	(8g#/	.	8g#/	.	.	.	.	.	8g#\J	.	.	.	.
8BB/	.	.	8BB/	.	8d\	.	8b/	.	8b/	.	.	.	.	.	8b\L	-ta	.	.	.
8BB/J	.	.	8BB/J	.	8d\J	.	8cc#/J)	.	8cc#/J	.	.	.	.	.	8cc#\J	.	.	.	.
!LO:LB:g=original	!	!	!	!	!	!	!	!	!	!	!	!	!	!	!	!	!	!	!
8BB/L	.	.	8BB/L	.	8d\L	.	4.dd\	.	4.dd\	.	.	.	.	.	4.dd\	gra-	.	.	.
8BB/	.	.	8BB/	.	8d\	.	.	.	.	.	.	.	.	.	.	.	.	.	.
8BB/	.	.	8BB/	.	8d\	.	.	.	.	.	.	.	.	.	.	.	.	.	.
8BB/J	.	.	8BB/J	.	8d\J	.	8f#/	.	8f#/	.	.	.	.	.	8f#/	-ti-	.	.	.
=98	=98	=98	=98	=98	=98	=98	=98	=98	=98	=98	=98	=98	=98	=98	=98	=98	=98	=98	=98
!	!	!	!	!	!	!	!LO:TX:t=P:problem=mixed beam	!	!LO:TX:t=P:problem=mixed beam	!	!	!	!	!	!	!	!	!	!
.	.	.	.	.	.	.	.	.	.	.	.	.	.	.	8qqf#/	.	.	.	.
8C#/L	#	.	8C#/L	.	8c#\L	.	16cc#\LL	.	16cc#\LL	.	1ryy	1ryy	1ryy	1ryy	2e#X/	-a	1ryy	1ryy	1ryy
.	.	.	.	.	.	.	16c#/	.	16c#/	.	.	.	.	.	.	.	.	.	.
8C#/	.	.	8C#/	.	8c#\	.	16c#/	.	16c#/	.	.	.	.	.	.	.	.	.	.
.	.	.	.	.	.	.	16c#/JJ	.	16c#/JJ	.	.	.	.	.	.	.	.	.	.
*	*	*	*	*	*	*	*tremolo	*	*tremolo	*	*	*	*	*	*	*	*	*	*
8C#/	.	.	8C#/	.	8c#\	.	16c#/LL	.	16c#/LL	.	.	.	.	.	.	.	.	.	.
.	.	.	.	.	.	.	16c#/	.	16c#/	.	.	.	.	.	.	.	.	.	.
8C#/J	.	.	8C#/J	.	8c#\J	.	16c#/	.	16c#/	.	.	.	.	.	.	.	.	.	.
.	.	.	.	.	.	.	16c#/JJ	.	16c#/JJ	.	.	.	.	.	.	.	.	.	.
!	!	!	!	!	!	!	!	!	!	!	!	!	!	!	!LO:LB:g=original	!	!	!	!
8C#/L	.	.	8C#/L	.	8c#\L	.	4c#/	.	4c#/	.	.	.	.	.	4r	.	.	.	.
8C#/	.	.	8C#/	.	8c#\	.	.	.	.	.	.	.	.	.	.	.	.	.	.
8C#/	.	.	8C#/	.	8c#\	.	4r	.	4r	.	.	.	.	.	4cc#\	ju-	.	.	.
8C#/J	.	.	8C#/J	.	8c#\J	.	.	.	.	.	.	.	.	.	.	.	.	.	.
!	!	!	!	!	!	!	!LO:LB:g=original	!	!	!	!	!	!	!	!	!	!	!	!
=99	=99	=99	=99	=99	=99	=99	=99	=99	=99	=99	=99	=99	=99	=99	=99	=99	=99	=99	=99
!	!	!LO:DY:t=pocfor	!	!	!	!	!	!	!LO:TX:a:i:t=g	!	!	!	!	!	!	!	!	!	!
!	!	!	!	!	!	!	!LO:TX:t=P:problem=mixed beam	!	!LO:TX:t=P:problem=mixed beam	!	!	!	!	!	!	!	!	!	!
8C#/L	#	f	8C#/L	.	8c#\L	.	16ee#X\LL	.	16gg#\LL	.	1ryy	1ryy	1ryy	1ryy	4.cc#\	-va-	1ryy	1ryy	1ryy
!	!	!	!	!	!	!	!	!LO:DY:t=pocfor	!	!LO:DY:t=pocfor	!	!	!	!	!	!	!	!	!
.	6 4	.	.	.	.	.	16e#X/	f	16g#\	f	.	.	.	.	.	.	.	.	.
8C#/	.	.	8C#/	.	8c#\	.	16e#/	.	16g#\	.	.	.	.	.	.	.	.	.	.
.	.	.	.	.	.	.	16e#/JJ	.	16g#\JJ	.	.	.	.	.	.	.	.	.	.
8C#/	.	.	8C#/	.	8c#\	.	16e#/LL	.	16g#/LL	.	.	.	.	.	.	.	.	.	.
.	.	.	.	.	.	.	16e#/	.	16g#/	.	.	.	.	.	.	.	.	.	.
8C#/J	.	.	8C#/J	.	8c#\J	.	16e#/	.	16g#/	.	.	.	.	.	8g#\	-re	.	.	.
.	.	.	.	.	.	.	16e#/JJ	.	16g#/JJ	.	.	.	.	.	.	.	.	.	.
!	!	!	!	!	!	!	!LO:TX:t=P:problem=mixed beam	!	!LO:TX:t=P:problem=mixed beam	!	!	!	!	!	!	!	!	!	!
.	.	.	.	.	.	.	.	.	.	.	.	.	.	.	8qqb/	.	.	.	.
8C#/L	.	.	8C#/L	.	8c#\L	.	16ff#\LL	.	16aa\LL	.	.	.	.	.	4a\	me	.	.	.
.	.	.	.	.	.	.	16f#/	.	16a/	.	.	.	.	.	.	.	.	.	.
8C#/	.	.	8C#/	.	8c#\	.	16f#/	.	16a/	.	.	.	.	.	.	.	.	.	.
.	.	.	.	.	.	.	16f#/JJ	.	16a/JJ	.	.	.	.	.	.	.	.	.	.
8C#/	.	.	8C#/	.	8c#\	.	16f#/LL	.	16a/LL	.	.	.	.	.	8g#/L	fe-	.	.	.
.	.	.	.	.	.	.	16f#/	.	16a/	.	.	.	.	.	.	.	.	.	.
8C#/J	.	.	8C#/J	.	8c#\J	.	16f#/	.	16a/	.	.	.	.	.	8f#/J	.	.	.	.
.	.	.	.	.	.	.	16f#/JJ	.	16a/JJ	.	.	.	.	.	.	.	.	.	.
!	!	!	!LO:LB:g=original	!	!	!	!	!	!	!	!	!	!	!	!	!	!	!	!
=100	=100	=100	=100	=100	=100	=100	=100	=100	=100	=100	=100	=100	=100	=100	=100	=100	=100	=100	=100
!	!	!	!	!	!	!	!LO:TX:t=P:problem=mixed beam	!	!	!	!	!	!	!	!	!	!	!	!
8C#/L	#	.	8C#/L	.	8c#\L	.	16e#X/LL	.	16g#/LL	.	1ryy	1ryy	1ryy	1ryy	4cc#\	-sti-	1ryy	1ryy	1ryy
.	.	.	.	.	.	.	16cc#\	.	16cc#/	.	.	.	.	.	.	.	.	.	.
8C#/	.	.	8C#/	.	8c#\	.	16c#/	.	16c#/	.	.	.	.	.	.	.	.	.	.
.	.	.	.	.	.	.	16c#/JJ	.	16c#/JJ	.	.	.	.	.	.	.	.	.	.
8C#/	.	.	8C#/	.	8c#\	.	16c#/LL	.	16c#/LL	.	.	.	.	.	4c#/	-na	.	.	.
.	.	.	.	.	.	.	16c#/	.	16c#/	.	.	.	.	.	.	.	.	.	.
8C#/J	.	.	8C#/J	.	8c#\J	.	16c#/	.	16c#/	.	.	.	.	.	.	.	.	.	.
.	.	.	.	.	.	.	16c#/JJ	.	16c#/JJ	.	.	.	.	.	.	.	.	.	.
8C#/L	.	.	8C#/L	.	8c#\L	.	4c#/	.	4c#/	.	.	.	.	.	4r	.	.	.	.
8C#/	.	.	8C#/	.	8c#\	.	.	.	.	.	.	.	.	.	.	.	.	.	.
8C#/	.	.	8C#/	.	8c#\	.	4r	.	4r	.	.	.	.	.	4cc#\	et	.	.	.
8C#/J	.	.	8C#/J	.	8c#\J	.	.	.	.	.	.	.	.	.	.	.	.	.	.
!LO:LB:g=original	!	!	!	!	!	!	!	!	!	!	!	!	!	!	!	!	!	!	!
=101	=101	=101	=101	=101	=101	=101	=101	=101	=101	=101	=101	=101	=101	=101	=101	=101	=101	=101	=101
!	!	!	!	!	!	!	!LO:TX:t=P:problem=mixed beam	!	!LO:TX:t=P:problem=mixed beam	!	!	!	!	!	!	!	!	!	!
8C#/L	.	.	8C#/L	.	8c#\L	.	16ee#X\LL	.	16gg#\LL	.	1ryy	1ryy	1ryy	1ryy	4.cc#\	tu-	1ryy	1ryy	1ryy
.	.	.	.	.	.	.	16e#X/	.	16g#/	.	.	.	.	.	.	.	.	.	.
8C#/	.	.	8C#/	.	8c#\	.	16e#/	.	16g#/	.	.	.	.	.	.	.	.	.	.
.	.	.	.	.	.	.	16e#/JJ	.	16g#/JJ	.	.	.	.	.	.	.	.	.	.
8C#/	.	.	8C#/	.	8c#\	.	16e#/LL	.	16g#/LL	.	.	.	.	.	.	.	.	.	.
.	.	.	.	.	.	.	16e#/	.	16g#/	.	.	.	.	.	.	.	.	.	.
8C#/J	.	.	8C#/J	.	8c#\J	.	16e#/	.	16g#/	.	.	.	.	.	8g#\	-a	.	.	.
.	.	.	.	.	.	.	16e#/JJ	.	16g#/JJ	.	.	.	.	.	.	.	.	.	.
!	!	!	!	!	!	!	!	!	!LO:LB:g=original	!	!	!	!	!	!LO:PB:g=original	!	!	!	!
!	!	!	!	!	!	!	!LO:TX:t=P:problem=mixed beam	!	!LO:TX:t=P:problem=mixed beam	!	!	!	!	!	!	!	!	!	!
.	.	.	.	.	.	.	.	.	.	.	.	.	.	.	8qqb/	.	.	.	.
8C#/L	6 4	.	8C#/L	.	8c#\L	.	16ff#\LL	.	16aa\LL	.	.	.	.	.	4a\	me	.	.	.
.	.	.	.	.	.	.	16f#/	.	16a/	.	.	.	.	.	.	.	.	.	.
8C#/	.	.	8C#/	.	8c#\	.	16f#/	.	16a/	.	.	.	.	.	.	.	.	.	.
.	.	.	.	.	.	.	16f#/JJ	.	16a/JJ	.	.	.	.	.	.	.	.	.	.
8C#/	.	.	8C#/	.	8c#\	.	16f#/LL	.	16a/LL	.	.	.	.	.	8g#/L	di-	.	.	.
.	.	.	.	.	.	.	16f#/	.	16a/	.	.	.	.	.	.	.	.	.	.
8C#/J	.	.	8C#/J	.	8c#\J	.	16f#/	.	16a/	.	.	.	.	.	8f#/J	.	.	.	.
.	.	.	.	.	.	.	16f#/JJ	.	16a/JJ	.	.	.	.	.	.	.	.	.	.
!	!	!	!	!	!LO:LB:g=original	!	!	!	!	!	!	!	!	!	!	!	!	!	!
=102	=102	=102	=102	=102	=102	=102	=102	=102	=102	=102	=102	=102	=102	=102	=102	=102	=102	=102	=102
!	!	!	!	!	!	!	!LO:TX:t=P:problem=mixed beam	!	!	!	!	!	!	!	!	!	!	!	!
8C#/L	#	.	8C#/L	.	8c#\L	.	16e#X/LL	.	16g#/LL	.	1ryy	1ryy	1ryy	1ryy	4cc#\	-vi-	1ryy	1ryy	1ryy
.	.	.	.	.	.	.	16cc#\	.	16cc#/	.	.	.	.	.	.	.	.	.	.
8C#/	.	.	8C#/	.	8c#\	.	16c#/	.	16c#/	.	.	.	.	.	.	.	.	.	.
.	.	.	.	.	.	.	16c#/JJ	.	16c#/JJ	.	.	.	.	.	.	.	.	.	.
8C#/	.	.	8C#/	.	8c#\	.	16c#/LL	.	16c#/LL	.	.	.	.	.	4c#/	-na	.	.	.
.	.	.	.	.	.	.	16c#/	.	16c#/	.	.	.	.	.	.	.	.	.	.
8C#/J	.	.	8C#/J	.	8c#\J	.	16c#/	.	16c#/	.	.	.	.	.	.	.	.	.	.
.	.	.	.	.	.	.	16c#/JJ	.	16c#/JJ	.	.	.	.	.	.	.	.	.	.
*Xtremolo	*	*	*Xtremolo	*	*	*	*Xtremolo	*	*Xtremolo	*	*	*	*	*	*	*	*	*	*
!	!	!	!	!	!	!	!LO:LB:g=original	!	!	!	!	!	!	!	!	!	!	!	!
8C#/L	.	.	8C#/L	.	8c#\L	.	4c#/	.	4c#/	.	.	.	.	.	4r	.	.	.	.
8C#/	.	.	8C#/	.	8c#\	.	.	.	.	.	.	.	.	.	.	.	.	.	.
8E#X/	.	.	8E#X/	.	8c#\	.	4r	.	4r	.	.	.	.	.	4cc#\	con-	.	.	.
8C#/J	.	.	8C#/J	.	8c#\J	.	.	.	.	.	.	.	.	.	.	.	.	.	.
*	*	*	*	*	*Xtremolo	*	*	*	*	*	*	*	*	*	*	*	*	*	*
=103	=103	=103	=103	=103	=103	=103	=103	=103	=103	=103	=103	=103	=103	=103	=103	=103	=103	=103	=103
.	.	.	.	.	.	.	.	.	.	.	.	.	.	.	8qqb/	.	.	.	.
!	!	!	!	!	!	!LO:HP:t=cres&colon;	!	!	!	!	!	!	!	!	!	!	!	!	!
8F#\L	10_ 8_	.	8F#\L	.	8c#/L	<	8r	.	8r	.	1ryy	1ryy	1ryy	1ryy	4a\	-for-	1ryy	1ryy	1ryy
8F#\	.	.	8F#\	.	8c#/	.	4a/	.	4ff#\	.	.	.	.	.	.	.	.	.	.
8A\	.	.	8A\	.	8A/	.	.	.	.	.	.	.	.	.	8g#/L	-ta	.	.	.
8A\J	.	.	8A\J	.	8A/J	.	4a/	.	4ff#\	.	.	.	.	.	8f#/J	.	.	.	.
8B\L	.	.	8B\L	.	8B/L	.	.	.	.	.	.	.	.	.	4.f#/	gra-	.	.	.
8B\	.	.	8B\	.	8B/	.	4a/	.	4ff#\	.	.	.	.	.	.	.	.	.	.
8c#\	.	.	8c#\	.	8c#/	.	.	.	.	.	.	.	.	.	.	.	.	.	.
8c#\J	.	.	8c#\J	.	8c#/J	.	[8a/	.	[<8ff#\	.	.	.	.	.	8f#/	-ti-	.	.	.
!LO:LB:g=original	!	!	!LO:LB:g=original	!	!	!	!	!	!	!	!	!	!	!	!LO:LB:g=original	!	!	!	!
=104	=104	=104	=104	=104	=104	=104	=104	=104	=104	=104	=104	=104	=104	=104	=104	=104	=104	=104	=104
*	*	*	*	*	*^	*	*	*	*	*	*	*	*	*	*	*	*	*	*
8d\L	.	.	8d\L	.	8d/L	8ryy	.	8a/]	.	8ff#\L]	.	1ryy	1ryy	1ryy	1ryy	4f#/	-a	1ryy	1ryy	1ryy
8d\	.	.	8d\	.	8d/	8B\	.	8r	.	16aa\L	.	.	.	.	.	.	.	.	.	.
.	X X	.	.	.	.	.	.	.	.	16gg#\JJ	.	.	.	.	.	.	.	.	.	.
8A\	.	.	8A\	.	8A/	4ryy	.	8r	.	8ff#\L	.	.	.	.	.	4ff#\	con-	.	.	.
8A\J	.	.	8A\J	.	8A/J	.	.	8cc#\	.	8ff#\J	.	.	.	.	.	.	.	.	.	.
*tremolo	*	*	*tremolo	*	*	*	*	*	*	*	*	*	*	*	*	*	*	*	*	*
!LO:TX:a:t=P:problem=skreślone nuty	!	!	!	!	!	!	!	!	!	!	!	!	!	!	!	!	!	!	!	!
8B\L	5	.	8B\L	.	8B/L	2ryy	.	(8dd/L	.	(8ff#\L	.	.	.	.	.	8ff#\L	-for-	.	.	.
8B\	.	.	8B\	.	8B/	.	.	8b/)	.	8dd\)	.	.	.	.	.	8dd\J	.	.	.	.
8B\	.	.	8B\	.	8B/	.	.	(8b/	.	(8dd\	.	.	.	.	.	8dd\L	-ta	.	.	.
8B\J	.	.	8B\J	.	8B/J	.	.	8g#/J)	.	8b\J)	.	.	.	.	.	8b\J	.	.	.	.
*	*	*	*Xtremolo	*	*	*	*	*	*	*	*	*	*	*	*	*	*	*	*	*
*Xtremolo	*	*	*	*	*	*	*	*	*	*	*	*	*	*	*	*	*	*	*	*
*	*	*	*	*	*v	*v	*	*	*	*	*	*	*	*	*	*	*	*	*	*
=105	=105	=105	=105	=105	=105	=105	=105	=105	=105	=105	=105	=105	=105	=105	=105	=105	=105	=105	=105
2c#;\	6 4	.	2c#;<\	.	4c#;/	.	4f#;/	f	4a;/	.	1ryy	1ryy	1ryy	1ryy	4a;\	gra-	1ryy	1ryy	1ryy
.	x #	.	.	.	4r	.	4r	.	4r	.	.	.	.	.	8.g#t\	.	.	.	.
.	.	.	.	.	.	.	.	.	.	.	.	.	.	.	16g#\	-ti-	.	.	.
!	!	!	!	!	!LO:TX:b:i:t=Da Capo.	!	!LO:TX:b:i:t=Da capo	!	!LO:TX:b:i:t=Da Capo	!	!	!	!	!	!	!	!	!	!
!	!	!	!	!	!	!	!	!	!LO:TX:b:i:t=Sieq Alleluja	!	!	!	!	!	!	!	!	!	!
4F#\	.	.	4F#\	.	2r;	.	2r	.	2r	.	.	.	.	.	4f#/	-a	.	.	.
!	!	!	!	!	!	!	!	!	!	!	!	!	!	!	!LO:TX:b:t=Da capo	!	!	!	!
!LO:TX:b:i:t=Da Capo	!	!	!LO:TX:b:i:t=Da Capo.	!	!	!	!	!	!	!	!	!	!	!	!LO:TX:t=P:problem=po ostatnim takcie rozpisana jakaś kadencja z długim melizmatem, która nie pasuje do do tej części	!	!	!	!
4r	.	.	4r	.	.	.	.	.	.	.	.	.	.	.	4r	.	.	.	.
==	==	==	==	==	==	==	==	==	==	==	==	==	==	==	==	==	==	==	==
*-	*-	*-	*-	*-	*-	*-	*-	*-	*-	*-	*-	*-	*-	*-	*-	*-	*-	*-	*-
!!!system-decoration: [g1]s3[g2][g3]s13
!!!RDF**kern: > = above
!!!RDF**kern: < = below
!!!RDF**dynam: p = "p:"
!!!RDF**dynam: f = "for"
!!!RDF**kern: | = vertical stroke
!!!ENC: Zofia Niedbalska
!!!END: 2021-01-06
!!!ENC: Andrzej Borzym
!!!END: 2021-01-02
